cingdim/camera_sensor_fusion/logs/robot_position_data_20251009_153548.csv
ts_epoch,J1,J2,J3,J4,J5,J6,X,Y,Z,W,P,R
1760042149.1875343,"ts_str,ts_int,J1,J2,J3,J4,J5,J6,X,Y,Z,W,P,R"
1760042149.192045,"09-OCT-25 14:33 , 1531540526, -.011887, .008849, -.014917, .034819, -90.063858, -.058225, 1782.794, -2206.565, 928.667, 179.965, .078, -.070"
1760042149.261943,"09-OCT-25 14:33 , 1531540526, -.011887, .008849, -.014917, .034819, -90.063858, -.058225, 1782.794, -2206.565, 928.667, 179.965, .078, -.070"
1760042149.3179383,"09-OCT-25 14:33 , 1531540526, -.011887, .008849, -.014917, .034819, -90.063858, -.058225, 1782.794, -2206.565, 928.667, 179.965, .078, -.070"
1760042149.381951,"09-OCT-25 14:33 , 1531540526, -.011887, .008849, -.014917, .034819, -90.063858, -.058225, 1782.794, -2206.565, 928.667, 179.965, .078, -.070"
1760042149.4379814,"09-OCT-25 14:33 , 1531540526, -.011887, .008849, -.014917, .034819, -90.063858, -.058225, 1782.794, -2206.565, 928.667, 179.965, .078, -.070"
1760042149.501987,"09-OCT-25 14:33 , 1531540527, -.011890, .008843, -.014908, .034819, -90.063858, -.058225, 1782.794, -2206.565, 928.667, 179.965, .078, -.070"
1760042149.5580003,"09-OCT-25 14:33 , 1531540527, -.011896, .008838, -.014898, .034819, -90.063858, -.058218, 1782.793, -2206.565, 928.668, 179.965, .078, -.070"
1760042149.6139417,"09-OCT-25 14:33 , 1531540527, -.011905, .008827, -.014879, .034823, -90.063858, -.058218, 1782.793, -2206.565, 928.668, 179.965, .078, -.070"
1760042149.6779351,"09-OCT-25 14:33 , 1531540527, -.011920, .008810, -.014851, .034823, -90.063858, -.058211, 1782.793, -2206.566, 928.669, 179.965, .078, -.070"
1760042149.7356794,"09-OCT-25 14:33 , 1531540527, -.011938, .008788, -.014816, .034827, -90.063858, -.058204, 1782.793, -2206.566, 928.669, 179.965, .078, -.070"
1760042149.797957,"09-OCT-25 14:33 , 1531540527, -.011965, .008758, -.014763, .034832, -90.063858, -.058191, 1782.792, -2206.567, 928.671, 179.965, .078, -.070"
1760042149.8539352,"09-OCT-25 14:33 , 1531540527, -.011995, .008722, -.014703, .034836, -90.063858, -.058177, 1782.792, -2206.568, 928.672, 179.965, .078, -.070"
1760042149.9179432,"09-OCT-25 14:33 , 1531540527, -.012037, .008672, -.014621, .034840, -90.063873, -.058157, 1782.791, -2206.569, 928.674, 179.965, .078, -.070"
1760042149.9747734,"09-OCT-25 14:33 , 1531540527, -.012078, .008623, -.014539, .034845, -90.063873, -.058136, 1782.790, -2206.570, 928.676, 179.965, .078, -.070"
1760042150.037992,"09-OCT-25 14:33 , 1531540527, -.012129, .008562, -.014435, .034853, -90.063873, -.058116, 1782.790, -2206.572, 928.678, 179.965, .078, -.070"
1760042150.0948124,"09-OCT-25 14:33 , 1531540527, -.012180, .008504, -.014337, .034862, -90.063873, -.058096, 1782.789, -2206.573, 928.680, 179.965, .078, -.070"
1760042150.1590579,"09-OCT-25 14:33 , 1531540527, -.012237, .008435, -.014220, .034871, -90.063873, -.058069, 1782.788, -2206.575, 928.683, 179.965, .078, -.070"
1760042150.213949,"09-OCT-25 14:33 , 1531540527, -.012290, .008372, -.014113, .034875, -90.063896, -.058041, 1782.787, -2206.576, 928.685, 179.965, .077, -.070"
1760042150.2790546,"09-OCT-25 14:33 , 1531540527, -.012353, .008297, -.013994, .034884, -90.063896, -.058014, 1782.786, -2206.578, 928.688, 179.965, .077, -.070"
1760042150.3339856,"09-OCT-25 14:33 , 1531540527, -.012407, .008236, -.013886, .034892, -90.063896, -.057994, 1782.785, -2206.580, 928.690, 179.965, .077, -.070"
1760042150.3979561,"09-OCT-25 14:33 , 1531540527, -.012464, .008168, -.013773, .034901, -90.063911, -.057967, 1782.784, -2206.581, 928.693, 179.965, .077, -.070"
1760042150.4541564,"09-OCT-25 14:33 , 1531540527, -.012511, .008110, -.013675, .034910, -90.063911, -.057947, 1782.783, -2206.583, 928.695, 179.965, .077, -.070"
1760042150.5111163,"09-OCT-25 14:33 , 1531540527, -.012556, .008057, -.013587, .034914, -90.063911, -.057926, 1782.782, -2206.584, 928.697, 179.965, .077, -.070"
1760042150.5748858,"09-OCT-25 14:33 , 1531540527, -.012604, .008002, -.013496, .034923, -90.063911, -.057906, 1782.781, -2206.585, 928.699, 179.965, .077, -.070"
1760042150.6309378,"09-OCT-25 14:33 , 1531540527, -.012637, .007961, -.013426, .034927, -90.063911, -.057885, 1782.781, -2206.586, 928.701, 179.965, .077, -.070"
1760042150.6941152,"09-OCT-25 14:33 , 1531540527, -.012670, .007922, -.013360, .034932, -90.063911, -.057872, 1782.781, -2206.587, 928.702, 179.965, .077, -.070"
1760042150.7512858,"09-OCT-25 14:33 , 1531540527, -.012693, .007895, -.013316, .034936, -90.063911, -.057865, 1782.780, -2206.588, 928.703, 179.965, .077, -.070"
1760042150.813974,"09-OCT-25 14:33 , 1531540527, -.012711, .007872, -.013278, .034936, -90.063927, -.057858, 1782.780, -2206.589, 928.704, 179.965, .077, -.070"
1760042150.8709388,"09-OCT-25 14:33 , 1531540527, -.012723, .007859, -.013256, .034940, -90.063927, -.057852, 1782.779, -2206.589, 928.704, 179.965, .077, -.070"
1760042150.9341094,"09-OCT-25 14:33 , 1531540527, -.012732, .007848, -.013237, .034940, -90.063927, -.057845, 1782.779, -2206.589, 928.705, 179.965, .077, -.070"
1760042150.991644,"09-OCT-25 14:33 , 1531540527, -.012738, .007842, -.013228, .034940, -90.063927, -.057845, 1782.779, -2206.589, 928.705, 179.965, .077, -.070"
1760042151.053989,"09-OCT-25 14:33 , 1531540527, -.012741, .007839, -.013225, .034940, -90.063927, -.057845, 1782.779, -2206.589, 928.705, 179.965, .077, -.070"
1760042151.111122,"09-OCT-25 14:33 , 1531540527, -.012741, .007839, -.013221, .034940, -90.063927, -.057845, 1782.779, -2206.589, 928.705, 179.965, .077, -.070"
1760042151.1741068,"09-OCT-25 14:33 , 1531540527, -.012738, .007839, -.013221, .034940, -90.063927, -.057845, 1782.779, -2206.589, 928.705, 179.965, .077, -.070"
1760042151.2311697,"09-OCT-25 14:33 , 1531540527, -.012616, .007839, -.013221, .034940, -90.063927, -.057845, 1782.779, -2206.586, 928.705, 179.965, .077, -.070"
1760042151.2941825,"09-OCT-25 14:33 , 1531540527, -.012529, .007839, -.013221, .034940, -90.063927, -.057845, 1782.779, -2206.583, 928.705, 179.965, .077, -.070"
1760042151.351167,"09-OCT-25 14:33 , 1531540527, -.012422, .007839, -.013221, .034940, -90.063927, -.057845, 1782.779, -2206.581, 928.705, 179.965, .077, -.070"
1760042151.4074788,"09-OCT-25 14:33 , 1531540527, -.012246, .007839, -.013221, .034940, -90.063927, -.057845, 1782.779, -2206.576, 928.705, 179.965, .077, -.070"
1760042151.4708834,"09-OCT-25 14:33 , 1531540528, -.011902, .007839, -.013221, .034940, -90.063927, -.057845, 1782.779, -2206.566, 928.705, 179.965, .077, -.069"
1760042151.5260026,"09-OCT-25 14:33 , 1531540528, -.011410, .007839, -.013221, .034940, -90.063927, -.057845, 1782.779, -2206.552, 928.705, 179.965, .077, -.069"
1760042151.5922434,"09-OCT-25 14:33 , 1531540528, -.010514, .007839, -.013221, .034940, -90.063927, -.057845, 1782.779, -2206.528, 928.705, 179.965, .077, -.068"
1760042151.6462097,"09-OCT-25 14:33 , 1531540528, -.009293, .007839, -.013225, .034940, -90.063927, -.057845, 1782.779, -2206.494, 928.705, 179.965, .077, -.067"
1760042151.710948,"09-OCT-25 14:33 , 1531540528, -.007179, .007839, -.013225, .034940, -90.063927, -.057845, 1782.779, -2206.435, 928.705, 179.965, .077, -.065"
1760042151.7660198,"09-OCT-25 14:33 , 1531540528, -.004448, .007842, -.013225, .034940, -90.063927, -.057845, 1782.779, -2206.359, 928.705, 179.965, .077, -.062"
1760042151.831254,"09-OCT-25 14:33 , 1531540528, .000068, .007842, -.013225, .034940, -90.063927, -.057845, 1782.779, -2206.233, 928.705, 179.965, .077, -.057"
1760042151.8873303,"09-OCT-25 14:33 , 1531540528, .005660, .007842, -.013228, .034940, -90.063927, -.057845, 1782.779, -2206.078, 928.705, 179.965, .077, -.052"
1760042151.9509592,"09-OCT-25 14:33 , 1531540528, .014544, .007845, -.013231, .034940, -90.063927, -.057845, 1782.779, -2205.831, 928.705, 179.965, .077, -.043"
1760042152.0059958,"09-OCT-25 14:33 , 1531540528, .025149, .007845, -.013234, .034940, -90.063927, -.057845, 1782.779, -2205.537, 928.705, 179.965, .077, -.032"
1760042152.071263,"09-OCT-25 14:33 , 1531540528, .041437, .007850, -.013237, .034940, -90.063927, -.057845, 1782.779, -2205.084, 928.705, 179.965, .077, -.016"
1760042152.1259987,"09-OCT-25 14:33 , 1531540528, .060290, .007853, -.013243, .034940, -90.063927, -.057845, 1782.779, -2204.561, 928.705, 179.965, .077, .002"
1760042152.1910896,"09-OCT-25 14:33 , 1531540528, .088445, .007859, -.013253, .034940, -90.063927, -.057845, 1782.778, -2203.778, 928.704, 179.965, .077, .030"
1760042152.2469146,"09-OCT-25 14:33 , 1531540528, .119742, .007864, -.013262, .034940, -90.063927, -.057852, 1782.777, -2202.909, 928.704, 179.965, .077, .061"
1760042152.3021753,"09-OCT-25 14:33 , 1531540528, .154617, .007870, -.013272, .034940, -90.063927, -.057852, 1782.775, -2201.940, 928.704, 179.965, .077, .096"
1760042152.3668897,"09-OCT-25 14:33 , 1531540528, .195520, .007878, -.013284, .034940, -90.063927, -.057852, 1782.771, -2200.804, 928.704, 179.965, .077, .137"
1760042152.4228406,"09-OCT-25 14:33 , 1531540528, .231832, .007884, -.013294, .034940, -90.063927, -.057858, 1782.768, -2199.795, 928.703, 179.965, .077, .173"
1760042152.4873695,"09-OCT-25 14:33 , 1531540528, .273628, .007892, -.013306, .034940, -90.063927, -.057858, 1782.763, -2198.634, 928.703, 179.965, .077, .215"
1760042152.5430837,"09-OCT-25 14:33 , 1531540528, .310402, .007897, -.013319, .034940, -90.063927, -.057858, 1782.758, -2197.613, 928.703, 179.965, .077, .252"
1760042152.6060088,"09-OCT-25 14:33 , 1531540528, .352607, .007906, -.013332, .034940, -90.063911, -.057865, 1782.752, -2196.440, 928.703, 179.965, .077, .294"
1760042152.6620252,"09-OCT-25 14:33 , 1531540528, .389662, .007911, -.013341, .034936, -90.063911, -.057865, 1782.745, -2195.411, 928.702, 179.965, .077, .331"
1760042152.7260609,"09-OCT-25 14:33 , 1531540528, .432132, .007919, -.013354, .034936, -90.063911, -.057865, 1782.737, -2194.231, 928.702, 179.965, .077, .374"
1760042152.7829266,"09-OCT-25 14:33 , 1531540528, .469384, .007928, -.013366, .034936, -90.063911, -.057872, 1782.729, -2193.196, 928.702, 179.965, .077, .411"
1760042152.8459933,"09-OCT-25 14:33 , 1531540528, .512040, .007936, -.013379, .034936, -90.063911, -.057872, 1782.719, -2192.011, 928.701, 179.965, .077, .454"
1760042152.9020526,"09-OCT-25 14:33 , 1531540528, .549429, .007941, -.013388, .034936, -90.063911, -.057872, 1782.710, -2190.972, 928.701, 179.965, .077, .491"
1760042152.9660892,"09-OCT-25 14:33 , 1531540528, .592225, .007950, -.013401, .034936, -90.063911, -.057879, 1782.698, -2189.784, 928.701, 179.965, .077, .534"
1760042153.022202,"09-OCT-25 14:33 , 1531540528, .629722, .007955, -.013414, .034936, -90.063911, -.057879, 1782.688, -2188.742, 928.701, 179.965, .077, .571"
1760042153.0875955,"09-OCT-25 14:33 , 1531540528, .672620, .007963, -.013426, .034936, -90.063911, -.057879, 1782.674, -2187.550, 928.701, 179.965, .077, .614"
1760042153.141984,"09-OCT-25 14:33 , 1531540528, .710200, .007972, -.013436, .034936, -90.063911, -.057879, 1782.662, -2186.506, 928.700, 179.965, .077, .652"
1760042153.1991875,"09-OCT-25 14:33 , 1531540528, .747810, .007977, -.013448, .034936, -90.063911, -.057885, 1782.649, -2185.462, 928.700, 179.965, .077, .689"
1760042153.2620583,"09-OCT-25 14:33 , 1531540528, .790830, .007986, -.013461, .034936, -90.063911, -.057885, 1782.633, -2184.267, 928.700, 179.965, .077, .732"
1760042153.318064,"09-OCT-25 14:33 , 1531540528, .828518, .007991, -.013470, .034932, -90.063911, -.057885, 1782.618, -2183.220, 928.700, 179.965, .077, .770"
1760042153.3820214,"09-OCT-25 14:33 , 1531540528, .871633, .007999, -.013483, .034932, -90.063911, -.057892, 1782.601, -2182.022, 928.699, 179.965, .077, .813"
1760042153.4394221,"09-OCT-25 14:33 , 1531540528, .909387, .008008, -.013496, .034932, -90.063911, -.057892, 1782.585, -2180.973, 928.699, 179.965, .077, .851"
1760042153.5031185,"09-OCT-25 14:33 , 1531540529, .952565, .008013, -.013508, .034932, -90.063911, -.057892, 1782.566, -2179.774, 928.699, 179.965, .077, .894"
1760042153.5591533,"09-OCT-25 14:33 , 1531540529, .990369, .008021, -.013518, .034932, -90.063911, -.057899, 1782.548, -2178.724, 928.698, 179.965, .077, .932"
1760042153.6228375,"09-OCT-25 14:33 , 1531540529, 1.033602, .008030, -.013533, .034932, -90.063911, -.057899, 1782.527, -2177.523, 928.698, 179.965, .077, .975"
1760042153.6784017,"09-OCT-25 14:33 , 1531540529, 1.071454, .008035, -.013543, .034932, -90.063911, -.057899, 1782.508, -2176.472, 928.698, 179.965, .077, 1.014"
1760042153.743099,"09-OCT-25 14:33 , 1531540529, 1.114745, .008043, -.013555, .034932, -90.063911, -.057906, 1782.486, -2175.270, 928.698, 179.965, .077, 1.057"
1760042153.7996178,"09-OCT-25 14:33 , 1531540529, 1.152645, .008052, -.013568, .034932, -90.063911, -.057906, 1782.465, -2174.217, 928.697, 179.965, .077, 1.095"
1760042153.8620543,"09-OCT-25 14:33 , 1531540529, 1.195978, .008057, -.013581, .034932, -90.063911, -.057906, 1782.441, -2173.013, 928.697, 179.965, .077, 1.138"
1760042153.9182904,"09-OCT-25 14:33 , 1531540529, 1.233896, .008066, -.013590, .034932, -90.063911, -.057913, 1782.419, -2171.960, 928.697, 179.965, .077, 1.176"
1760042153.9820986,"09-OCT-25 14:33 , 1531540529, 1.277244, .008074, -.013603, .034927, -90.063911, -.057913, 1782.392, -2170.756, 928.696, 179.965, .077, 1.219"
1760042154.0380616,"09-OCT-25 14:33 , 1531540529, 1.315189, .008079, -.013615, .034927, -90.063911, -.057913, 1782.369, -2169.702, 928.696, 179.965, .077, 1.257"
1760042154.0941017,"09-OCT-25 14:33 , 1531540529, 1.353157, .008088, -.013628, .034927, -90.063911, -.057919, 1782.344, -2168.648, 928.696, 179.965, .077, 1.295"
1760042154.1581411,"09-OCT-25 14:33 , 1531540529, 1.396559, .008096, -.013641, .034927, -90.063911, -.057919, 1782.316, -2167.443, 928.696, 179.965, .077, 1.339"
1760042154.2154791,"09-OCT-25 14:33 , 1531540529, 1.434543, .008101, -.013650, .034927, -90.063911, -.057919, 1782.290, -2166.388, 928.695, 179.965, .077, 1.377"
1760042154.278004,"09-OCT-25 14:33 , 1531540529, 1.477963, .008110, -.013663, .034927, -90.063911, -.057926, 1782.260, -2165.182, 928.695, 179.965, .077, 1.420"
1760042154.3342404,"09-OCT-25 14:33 , 1531540529, 1.515967, .008118, -.013675, .034927, -90.063911, -.057926, 1782.232, -2164.126, 928.695, 179.965, .077, 1.458"
1760042154.3994462,"09-OCT-25 14:33 , 1531540529, 1.559411, .008123, -.013688, .034927, -90.063911, -.057926, 1782.200, -2162.920, 928.695, 179.965, .077, 1.501"
1760042154.4541595,"09-OCT-25 14:33 , 1531540529, 1.597430, .008132, -.013697, .034927, -90.063911, -.057933, 1782.172, -2161.864, 928.694, 179.965, .077, 1.539"
1760042154.5192268,"09-OCT-25 14:33 , 1531540529, 1.640895, .008140, -.013713, .034927, -90.063911, -.057933, 1782.138, -2160.657, 928.694, 179.965, .077, 1.583"
1760042154.5752413,"09-OCT-25 14:33 , 1531540529, 1.678938, .008145, -.013723, .034927, -90.063911, -.057933, 1782.107, -2159.601, 928.694, 179.965, .077, 1.621"
1760042154.6398513,"09-OCT-25 14:33 , 1531540529, 1.722414, .008154, -.013735, .034923, -90.063911, -.057940, 1782.072, -2158.394, 928.694, 179.965, .077, 1.664"
1760042154.6949065,"09-OCT-25 14:33 , 1531540529, 1.760470, .008162, -.013748, .034923, -90.063911, -.057940, 1782.040, -2157.337, 928.693, 179.965, .077, 1.702"
1760042154.758044,"09-OCT-25 14:33 , 1531540529, 1.803964, .008168, -.013760, .034923, -90.063911, -.057940, 1782.003, -2156.129, 928.693, 179.965, .077, 1.746"
1760042154.815398,"09-OCT-25 14:33 , 1531540529, 1.842028, .008176, -.013770, .034923, -90.063911, -.057947, 1781.969, -2155.072, 928.693, 179.965, .077, 1.784"
1760042154.881806,"09-OCT-25 14:33 , 1531540529, 1.885547, .008184, -.013786, .034923, -90.063911, -.057947, 1781.930, -2153.864, 928.692, 179.965, .077, 1.828"
1760042154.9340472,"09-OCT-25 14:33 , 1531540529, 1.923643, .008190, -.013795, .034923, -90.063911, -.057947, 1781.895, -2152.806, 928.692, 179.965, .077, 1.866"
1760042154.9912448,"09-OCT-25 14:33 , 1531540529, 1.961734, .008198, -.013808, .034923, -90.063911, -.057953, 1781.859, -2151.749, 928.692, 179.965, .077, 1.904"
1760042155.0579698,"09-OCT-25 14:33 , 1531540529, 2.005270, .008206, -.013820, .034923, -90.063911, -.057953, 1781.818, -2150.540, 928.692, 179.965, .077, 1.947"
1760042155.1110241,"09-OCT-25 14:33 , 1531540529, 2.043359, .008212, -.013830, .034923, -90.063911, -.057953, 1781.781, -2149.482, 928.691, 179.965, .077, 1.985"
1760042155.1740901,"09-OCT-25 14:33 , 1531540529, 2.086904, .008220, -.013842, .034923, -90.063911, -.057960, 1781.737, -2148.273, 928.691, 179.965, .077, 2.029"
1760042155.2312927,"09-OCT-25 14:33 , 1531540529, 2.125013, .008228, -.013855, .034918, -90.063911, -.057960, 1781.699, -2147.216, 928.691, 179.965, .077, 2.067"
1760042155.2942133,"09-OCT-25 14:33 , 1531540529, 2.168543, .008234, -.013867, .034918, -90.063911, -.057960, 1781.654, -2146.007, 928.691, 179.965, .077, 2.111"
1760042155.3510253,"09-OCT-25 14:33 , 1531540529, 2.206649, .008242, -.013880, .034918, -90.063911, -.057967, 1781.614, -2144.949, 928.690, 179.965, .077, 2.149"
1760042155.4140546,"09-OCT-25 14:33 , 1531540529, 2.250221, .008250, -.013893, .034918, -90.063911, -.057967, 1781.567, -2143.740, 928.690, 179.965, .077, 2.192"
1760042155.4718018,"09-OCT-25 14:33 , 1531540530, 2.288354, .008256, -.013902, .034918, -90.063911, -.057967, 1781.525, -2142.681, 928.690, 179.965, .077, 2.230"
1760042155.5342858,"09-OCT-25 14:33 , 1531540530, 2.331932, .008264, -.013915, .034918, -90.063911, -.057974, 1781.477, -2141.471, 928.690, 179.965, .077, 2.274"
1760042155.5911417,"09-OCT-25 14:33 , 1531540530, 2.370053, .008272, -.013927, .034918, -90.063911, -.057974, 1781.434, -2140.413, 928.689, 179.965, .077, 2.312"
1760042155.6552248,"09-OCT-25 14:33 , 1531540530, 2.413622, .008281, -.013940, .034918, -90.063911, -.057974, 1781.383, -2139.204, 928.689, 179.965, .077, 2.356"
1760042155.713893,"09-OCT-25 14:33 , 1531540530, 2.451757, .008286, -.013953, .034918, -90.063911, -.057974, 1781.339, -2138.146, 928.689, 179.965, .077, 2.394"
1760042155.7741842,"09-OCT-25 14:33 , 1531540530, 2.495347, .008294, -.013965, .034918, -90.063896, -.057980, 1781.287, -2136.936, 928.688, 179.965, .077, 2.437"
1760042155.8309994,"09-OCT-25 14:33 , 1531540530, 2.533492, .008300, -.013975, .034918, -90.063896, -.057980, 1781.241, -2135.877, 928.688, 179.965, .077, 2.475"
1760042155.8877263,"09-OCT-25 14:33 , 1531540530, 2.571622, .008308, -.013987, .034914, -90.063896, -.057980, 1781.194, -2134.819, 928.688, 179.965, .077, 2.514"
1760042155.9512289,"09-OCT-25 14:33 , 1531540530, 2.615176, .008316, -.014000, .034914, -90.063896, -.057987, 1781.139, -2133.610, 928.688, 179.965, .077, 2.557"
1760042156.0060813,"09-OCT-25 14:33 , 1531540530, 2.653294, .008322, -.014012, .034914, -90.063896, -.057987, 1781.091, -2132.552, 928.687, 179.965, .077, 2.595"
1760042156.0709782,"09-OCT-25 14:33 , 1531540530, 2.696905, .008330, -.014025, .034914, -90.063896, -.057987, 1781.034, -2131.342, 928.687, 179.965, .077, 2.639"
1760042156.126215,"09-OCT-25 14:33 , 1531540530, 2.735025, .008339, -.014035, .034914, -90.063896, -.057994, 1780.985, -2130.284, 928.687, 179.965, .077, 2.677"
1760042156.1910467,"09-OCT-25 14:33 , 1531540530, 2.778580, .008347, -.014047, .034914, -90.063896, -.057994, 1780.927, -2129.076, 928.687, 179.965, .077, 2.721"
1760042156.2461026,"09-OCT-25 14:33 , 1531540530, 2.816727, .008352, -.014060, .034914, -90.063896, -.057994, 1780.875, -2128.017, 928.686, 179.965, .077, 2.759"
1760042156.3114119,"09-OCT-25 14:33 , 1531540530, 2.860329, .008361, -.014072, .034914, -90.063896, -.058001, 1780.816, -2126.807, 928.686, 179.965, .077, 2.802"
1760042156.3698022,"09-OCT-25 14:33 , 1531540530, 2.898450, .008366, -.014085, .034914, -90.063896, -.058001, 1780.762, -2125.750, 928.686, 179.965, .077, 2.840"
1760042156.4309943,"09-OCT-25 14:33 , 1531540530, 2.942013, .008374, -.014098, .034914, -90.063896, -.058001, 1780.701, -2124.541, 928.685, 179.965, .077, 2.884"
1760042156.4875312,"09-OCT-25 14:33 , 1531540530, 2.980128, .008383, -.014107, .034914, -90.063896, -.058008, 1780.647, -2123.484, 928.685, 179.965, .077, 2.922"
1760042156.5515883,"09-OCT-25 14:33 , 1531540530, 3.023691, .008391, -.014120, .034910, -90.063896, -.058008, 1780.584, -2122.275, 928.685, 179.965, .077, 2.966"
1760042156.6076143,"09-OCT-25 14:33 , 1531540530, 3.061851, .008396, -.014132, .034910, -90.063896, -.058008, 1780.528, -2121.217, 928.685, 179.965, .077, 3.004"
1760042156.671066,"09-OCT-25 14:33 , 1531540530, 3.105423, .008405, -.014145, .034910, -90.063896, -.058014, 1780.463, -2120.008, 928.684, 179.965, .078, 3.047"
1760042156.7271733,"09-OCT-25 14:33 , 1531540530, 3.143541, .008413, -.014157, .034910, -90.063896, -.058014, 1780.405, -2118.950, 928.684, 179.965, .078, 3.085"
1760042156.7832446,"09-OCT-25 14:33 , 1531540530, 3.181677, .008418, -.014167, .034910, -90.063896, -.058014, 1780.347, -2117.893, 928.684, 179.965, .078, 3.124"
1760042156.846207,"09-OCT-25 14:33 , 1531540530, 3.225264, .008427, -.014180, .034910, -90.063896, -.058021, 1780.280, -2116.684, 928.684, 179.965, .078, 3.167"
1760042156.9021544,"09-OCT-25 14:33 , 1531540530, 3.263349, .008432, -.014192, .034910, -90.063896, -.058021, 1780.220, -2115.627, 928.683, 179.965, .078, 3.205"
1760042156.9674568,"09-OCT-25 14:33 , 1531540530, 3.306947, .008441, -.014205, .034910, -90.063896, -.058021, 1780.151, -2114.418, 928.683, 179.965, .078, 3.249"
1760042157.0233915,"09-OCT-25 14:33 , 1531540530, 3.345086, .008449, -.014217, .034910, -90.063896, -.058028, 1780.090, -2113.360, 928.683, 179.965, .078, 3.287"
1760042157.0861046,"09-OCT-25 14:33 , 1531540530, 3.388593, .008457, -.014230, .034910, -90.063896, -.058028, 1780.019, -2112.154, 928.683, 179.965, .078, 3.331"
1760042157.1432066,"09-OCT-25 14:33 , 1531540530, 3.426743, .008463, -.014239, .034910, -90.063896, -.058028, 1779.956, -2111.096, 928.682, 179.965, .078, 3.369"
1760042157.2062657,"09-OCT-25 14:33 , 1531540530, 3.470369, .008471, -.014252, .034905, -90.063896, -.058035, 1779.884, -2109.886, 928.682, 179.965, .078, 3.412"
1760042157.2621155,"09-OCT-25 14:33 , 1531540530, 3.508499, .008479, -.014265, .034905, -90.063896, -.058035, 1779.820, -2108.829, 928.682, 179.965, .078, 3.450"
1760042157.3261259,"09-OCT-25 14:33 , 1531540530, 3.552095, .008485, -.014277, .034905, -90.063896, -.058035, 1779.745, -2107.620, 928.681, 179.965, .078, 3.494"
1760042157.3836706,"09-OCT-25 14:33 , 1531540530, 3.590236, .008493, -.014290, .034905, -90.063896, -.058041, 1779.680, -2106.563, 928.681, 179.965, .078, 3.532"
1760042157.4472082,"09-OCT-25 14:33 , 1531540531, 3.633815, .008501, -.014302, .034905, -90.063896, -.058041, 1779.604, -2105.354, 928.681, 179.965, .078, 3.576"
1760042157.502146,"09-OCT-25 14:33 , 1531540531, 3.671971, .008507, -.014312, .034905, -90.063896, -.058041, 1779.536, -2104.296, 928.681, 179.965, .078, 3.614"
1760042157.5661452,"09-OCT-25 14:33 , 1531540531, 3.715567, .008515, -.014325, .034905, -90.063896, -.058048, 1779.458, -2103.088, 928.680, 179.965, .078, 3.657"
1760042157.6222951,"09-OCT-25 14:33 , 1531540531, 3.753712, .008523, -.014337, .034905, -90.063896, -.058048, 1779.390, -2102.030, 928.680, 179.965, .078, 3.696"
1760042157.6781425,"09-OCT-25 14:33 , 1531540531, 3.791880, .008529, -.014350, .034905, -90.063896, -.058048, 1779.320, -2100.972, 928.680, 179.965, .078, 3.734"
1760042157.7420878,"09-OCT-25 14:33 , 1531540531, 3.835438, .008537, -.014362, .034905, -90.063896, -.058055, 1779.240, -2099.765, 928.680, 179.965, .078, 3.777"
1760042157.7994921,"09-OCT-25 14:33 , 1531540531, 3.873570, .008545, -.014372, .034905, -90.063896, -.058055, 1779.169, -2098.708, 928.679, 179.965, .078, 3.815"
1760042157.8633358,"09-OCT-25 14:33 , 1531540531, 3.917176, .008551, -.014384, .034901, -90.063873, -.058055, 1779.087, -2097.499, 928.679, 179.965, .078, 3.859"
1760042157.9192688,"09-OCT-25 14:33 , 1531540531, 3.955302, .008559, -.014397, .034901, -90.063873, -.058062, 1779.015, -2096.443, 928.679, 179.965, .078, 3.897"
1760042157.9820566,"09-OCT-25 14:33 , 1531540531, 3.998815, .008567, -.014410, .034901, -90.063873, -.058062, 1778.931, -2095.237, 928.679, 179.965, .078, 3.941"
1760042158.0401206,"09-OCT-25 14:33 , 1531540531, 4.036923, .008573, -.014422, .034901, -90.063873, -.058062, 1778.857, -2094.181, 928.678, 179.965, .078, 3.979"
1760042158.1021237,"09-OCT-25 14:33 , 1531540531, 4.080516, .008581, -.014435, .034901, -90.063873, -.058069, 1778.772, -2092.973, 928.678, 179.965, .078, 4.022"
1760042158.158093,"09-OCT-25 14:33 , 1531540531, 4.118634, .008589, -.014444, .034901, -90.063873, -.058069, 1778.696, -2091.917, 928.678, 179.965, .078, 4.061"
1760042158.222302,"09-OCT-25 14:33 , 1531540531, 4.162263, .008598, -.014457, .034901, -90.063873, -.058069, 1778.609, -2090.708, 928.677, 179.965, .078, 4.104"
1760042158.2780526,"09-OCT-25 14:33 , 1531540531, 4.200354, .008603, -.014469, .034901, -90.063873, -.058075, 1778.532, -2089.652, 928.677, 179.965, .078, 4.142"
1760042158.3428614,"09-OCT-25 14:33 , 1531540531, 4.243744, .008612, -.014482, .034901, -90.063873, -.058075, 1778.444, -2088.450, 928.677, 179.965, .078, 4.186"
1760042158.3980849,"09-OCT-25 14:33 , 1531540531, 4.281796, .008617, -.014495, .034901, -90.063873, -.058075, 1778.365, -2087.396, 928.677, 179.965, .078, 4.224"
1760042158.4623513,"09-OCT-25 14:33 , 1531540531, 4.325350, .008625, -.014507, .034897, -90.063873, -.058082, 1778.275, -2086.189, 928.676, 179.965, .078, 4.267"
1760042158.5180428,"09-OCT-25 14:33 , 1531540531, 4.363453, .008634, -.014517, .034897, -90.063873, -.058082, 1778.195, -2085.134, 928.676, 179.965, .078, 4.305"
1760042158.57405,"09-OCT-25 14:33 , 1531540531, 4.401571, .008639, -.014529, .034897, -90.063873, -.058082, 1778.114, -2084.078, 928.676, 179.965, .078, 4.343"
1760042158.6418366,"09-OCT-25 14:33 , 1531540531, 4.445137, .008647, -.014542, .034897, -90.063873, -.058089, 1778.021, -2082.871, 928.676, 179.965, .078, 4.387"
1760042158.6941342,"09-OCT-25 14:33 , 1531540531, 4.483267, .008656, -.014555, .034897, -90.063873, -.058089, 1777.939, -2081.815, 928.675, 179.965, .078, 4.425"
1760042158.7580848,"09-OCT-25 14:33 , 1531540531, 4.526752, .008664, -.014567, .034897, -90.063873, -.058089, 1777.845, -2080.611, 928.675, 179.965, .078, 4.469"
1760042158.8159308,"09-OCT-25 14:33 , 1531540531, 4.564900, .008669, -.014577, .034897, -90.063873, -.058096, 1777.761, -2079.554, 928.675, 179.965, .078, 4.507"
1760042158.8817844,"09-OCT-25 14:33 , 1531540531, 4.608388, .008678, -.014589, .034897, -90.063873, -.058096, 1777.664, -2078.350, 928.674, 179.965, .078, 4.550"
1760042158.934969,"09-OCT-25 14:33 , 1531540531, 4.646378, .008683, -.014602, .034897, -90.063873, -.058096, 1777.580, -2077.298, 928.674, 179.965, .078, 4.588"
1760042158.9994988,"09-OCT-25 14:33 , 1531540531, 4.689732, .008691, -.014614, .034897, -90.063873, -.058103, 1777.482, -2076.098, 928.674, 179.965, .078, 4.632"
1760042159.0541568,"09-OCT-25 14:33 , 1531540531, 4.727498, .008700, -.014627, .034897, -90.063873, -.058103, 1777.396, -2075.052, 928.674, 179.965, .078, 4.669"
1760042159.1192608,"09-OCT-25 14:33 , 1531540531, 4.770619, .008708, -.014640, .034892, -90.063873, -.058103, 1777.297, -2073.858, 928.673, 179.965, .078, 4.712"
1760042159.174126,"09-OCT-25 14:33 , 1531540531, 4.808561, .008714, -.014649, .034892, -90.063873, -.058103, 1777.209, -2072.808, 928.673, 179.965, .078, 4.750"
1760042159.2383332,"09-OCT-25 14:33 , 1531540531, 4.852002, .008722, -.014662, .034892, -90.063873, -.058109, 1777.108, -2071.605, 928.673, 179.965, .078, 4.794"
1760042159.2940834,"09-OCT-25 14:33 , 1531540531, 4.889967, .008727, -.014674, .034892, -90.063873, -.058109, 1777.019, -2070.554, 928.673, 179.965, .078, 4.832"
1760042159.3581102,"09-OCT-25 14:33 , 1531540531, 4.933381, .008736, -.014687, .034892, -90.063873, -.058109, 1776.916, -2069.353, 928.672, 179.965, .078, 4.875"
1760042159.415908,"09-OCT-25 14:33 , 1531540531, 4.971394, .008744, -.014696, .034892, -90.063873, -.058116, 1776.825, -2068.301, 928.672, 179.965, .078, 4.913"
1760042159.4709961,"09-OCT-25 14:33 , 1531540532, 5.009414, .008749, -.014709, .034892, -90.063873, -.058116, 1776.733, -2067.249, 928.672, 179.965, .078, 4.951"
1760042159.5340984,"09-OCT-25 14:33 , 1531540532, 5.052774, .008758, -.014722, .034892, -90.063873, -.058116, 1776.628, -2066.049, 928.672, 179.965, .078, 4.995"
1760042159.595288,"09-OCT-25 14:33 , 1531540532, 5.090599, .008766, -.014734, .034892, -90.063873, -.058123, 1776.535, -2065.002, 928.671, 179.965, .078, 5.032"
1760042159.6543937,"09-OCT-25 14:33 , 1531540532, 5.133953, .008771, -.014747, .034892, -90.063873, -.058123, 1776.428, -2063.802, 928.671, 179.965, .078, 5.076"
1760042159.7112024,"09-OCT-25 14:33 , 1531540532, 5.171871, .008780, -.014756, .034892, -90.063873, -.058123, 1776.334, -2062.753, 928.671, 179.965, .078, 5.114"
1760042159.7752914,"09-OCT-25 14:33 , 1531540532, 5.215243, .008788, -.014769, .034888, -90.063873, -.058130, 1776.225, -2061.553, 928.670, 179.965, .078, 5.157"
1760042159.8316963,"09-OCT-25 14:33 , 1531540532, 5.253036, .008794, -.014782, .034888, -90.063873, -.058130, 1776.130, -2060.508, 928.670, 179.965, .078, 5.195"
1760042159.8949943,"09-OCT-25 14:33 , 1531540532, 5.296354, .008802, -.014794, .034888, -90.063873, -.058130, 1776.019, -2059.309, 928.670, 179.965, .078, 5.238"
1760042159.951392,"09-OCT-25 14:33 , 1531540532, 5.334319, .008810, -.014807, .034888, -90.063873, -.058136, 1775.922, -2058.259, 928.670, 179.965, .078, 5.276"
1760042160.0153518,"09-OCT-25 14:33 , 1531540532, 5.377739, .008816, -.014819, .034888, -90.063873, -.058136, 1775.809, -2057.058, 928.669, 179.965, .078, 5.320"
1760042160.0712376,"09-OCT-25 14:33 , 1531540532, 5.415722, .008824, -.014829, .034888, -90.063873, -.058136, 1775.710, -2056.008, 928.669, 179.965, .078, 5.358"
1760042160.134234,"09-OCT-25 14:33 , 1531540532, 5.458996, .008832, -.014841, .034888, -90.063873, -.058143, 1775.597, -2054.811, 928.669, 179.965, .078, 5.401"
1760042160.1918066,"09-OCT-25 14:33 , 1531540532, 5.496666, .008838, -.014854, .034888, -90.063873, -.058143, 1775.497, -2053.769, 928.669, 179.965, .078, 5.438"
1760042160.2553263,"09-OCT-25 14:33 , 1531540532, 5.539895, .008846, -.014867, .034888, -90.063873, -.058143, 1775.382, -2052.574, 928.668, 179.965, .078, 5.482"
1760042160.31104,"09-OCT-25 14:33 , 1531540532, 5.577846, .008854, -.014876, .034888, -90.063873, -.058150, 1775.280, -2051.524, 928.668, 179.965, .078, 5.520"
1760042160.366982,"09-OCT-25 14:33 , 1531540532, 5.615787, .008860, -.014889, .034888, -90.063873, -.058150, 1775.178, -2050.475, 928.668, 179.965, .078, 5.558"
1760042160.4312348,"09-OCT-25 14:33 , 1531540532, 5.659111, .008868, -.014901, .034884, -90.063873, -.058150, 1775.060, -2049.278, 928.668, 179.965, .078, 5.601"
1760042160.4860542,"09-OCT-25 14:33 , 1531540532, 5.696972, .008873, -.014914, .034884, -90.063873, -.058157, 1774.956, -2048.231, 928.667, 179.965, .078, 5.639"
1760042160.551068,"09-OCT-25 14:33 , 1531540532, 5.740231, .008882, -.014927, .034884, -90.063873, -.058157, 1774.836, -2047.035, 928.667, 179.965, .078, 5.682"
1760042160.6061845,"09-OCT-25 14:33 , 1531540532, 5.778167, .008890, -.014936, .034884, -90.063873, -.058157, 1774.731, -2045.987, 928.667, 179.965, .078, 5.720"
1760042160.6713521,"09-OCT-25 14:33 , 1531540532, 5.821461, .008898, -.014949, .034884, -90.063873, -.058164, 1774.610, -2044.790, 928.666, 179.965, .078, 5.763"
1760042160.7269928,"09-OCT-25 14:33 , 1531540532, 5.859346, .008904, -.014961, .034884, -90.063873, -.058164, 1774.503, -2043.743, 928.666, 179.965, .078, 5.801"
1760042160.791677,"09-OCT-25 14:33 , 1531540532, 5.902632, .008912, -.014974, .034884, -90.063873, -.058164, 1774.380, -2042.547, 928.666, 179.965, .078, 5.844"
1760042160.8462532,"09-OCT-25 14:33 , 1531540532, 5.940567, .008920, -.014986, .034884, -90.063873, -.058170, 1774.271, -2041.498, 928.666, 179.965, .078, 5.882"
1760042160.9111767,"09-OCT-25 14:33 , 1531540532, 5.983844, .008926, -.014999, .034884, -90.063873, -.058170, 1774.147, -2040.303, 928.665, 179.965, .078, 5.926"
1760042160.9669547,"09-OCT-25 14:33 , 1531540532, 6.021646, .008934, -.015008, .034884, -90.063873, -.058170, 1774.037, -2039.258, 928.665, 179.965, .078, 5.963"
1760042161.0313318,"09-OCT-25 14:33 , 1531540532, 6.064982, .008942, -.015021, .034879, -90.063873, -.058177, 1773.911, -2038.061, 928.665, 179.965, .078, 6.007"
1760042161.0869925,"09-OCT-25 14:33 , 1531540532, 6.102935, .008948, -.015034, .034879, -90.063858, -.058177, 1773.799, -2037.013, 928.665, 179.965, .078, 6.045"
1760042161.1510592,"09-OCT-25 14:33 , 1531540532, 6.146245, .008956, -.015046, .034879, -90.063858, -.058177, 1773.671, -2035.816, 928.664, 179.965, .078, 6.088"
1760042161.2062275,"09-OCT-25 14:33 , 1531540532, 6.184225, .008964, -.015056, .034879, -90.063858, -.058184, 1773.558, -2034.767, 928.664, 179.965, .078, 6.126"
1760042161.2623112,"09-OCT-25 14:33 , 1531540532, 6.222039, .008970, -.015068, .034879, -90.063858, -.058184, 1773.445, -2033.723, 928.664, 179.965, .078, 6.164"
1760042161.32614,"09-OCT-25 14:33 , 1531540532, 6.265291, .008978, -.015081, .034879, -90.063858, -.058184, 1773.315, -2032.528, 928.664, 179.965, .078, 6.207"
1760042161.3821664,"09-OCT-25 14:33 , 1531540532, 6.303111, .008984, -.015094, .034879, -90.063858, -.058191, 1773.200, -2031.484, 928.663, 179.965, .078, 6.245"
1760042161.4464247,"09-OCT-25 14:33 , 1531540533, 6.346339, .008992, -.015106, .034879, -90.063858, -.058191, 1773.068, -2030.290, 928.663, 179.965, .078, 6.288"
1760042161.5021582,"09-OCT-25 14:33 , 1531540533, 6.384346, .009000, -.015116, .034879, -90.063858, -.058191, 1772.951, -2029.241, 928.663, 179.965, .078, 6.326"
1760042161.566125,"09-OCT-25 14:33 , 1531540533, 6.427593, .009009, -.015128, .034879, -90.063858, -.058198, 1772.817, -2028.047, 928.662, 179.965, .078, 6.369"
1760042161.6222043,"09-OCT-25 14:33 , 1531540533, 6.465469, .009014, -.015141, .034879, -90.063858, -.058198, 1772.699, -2027.001, 928.662, 179.965, .078, 6.407"
1760042161.6898346,"09-OCT-25 14:33 , 1531540533, 6.508868, .009022, -.015153, .034875, -90.063858, -.058198, 1772.563, -2025.803, 928.662, 179.965, .078, 6.451"
1760042161.7421553,"09-OCT-25 14:33 , 1531540533, 6.546753, .009028, -.015163, .034875, -90.063858, -.058198, 1772.444, -2024.758, 928.662, 179.965, .078, 6.489"
1760042161.8061216,"09-OCT-25 14:33 , 1531540533, 6.590122, .009036, -.015179, .034875, -90.063858, -.058204, 1772.306, -2023.561, 928.661, 179.965, .079, 6.532"
1760042161.863408,"09-OCT-25 14:33 , 1531540533, 6.627923, .009044, -.015188, .034875, -90.063858, -.058204, 1772.186, -2022.518, 928.661, 179.965, .079, 6.570"
1760042161.9261274,"09-OCT-25 14:33 , 1531540533, 6.671206, .009053, -.015201, .034875, -90.063858, -.058204, 1772.047, -2021.323, 928.661, 179.965, .079, 6.613"
1760042161.983033,"09-OCT-25 14:33 , 1531540533, 6.709031, .009058, -.015213, .034875, -90.063858, -.058211, 1771.925, -2020.280, 928.661, 179.965, .079, 6.651"
1760042162.0469842,"09-OCT-25 14:33 , 1531540533, 6.752338, .009067, -.015226, .034875, -90.063858, -.058211, 1771.784, -2019.085, 928.660, 179.965, .079, 6.694"
1760042162.1023145,"09-OCT-25 14:33 , 1531540533, 6.790288, .009072, -.015235, .034875, -90.063858, -.058211, 1771.660, -2018.038, 928.660, 179.965, .079, 6.732"
1760042162.159216,"09-OCT-25 14:33 , 1531540533, 6.828227, .009080, -.015248, .034875, -90.063858, -.058218, 1771.535, -2016.991, 928.660, 179.965, .079, 6.770"
1760042162.2230282,"09-OCT-25 14:33 , 1531540533, 6.871581, .009089, -.015261, .034875, -90.063858, -.058218, 1771.392, -2015.796, 928.659, 179.965, .079, 6.813"
1760042162.2819011,"09-OCT-25 14:33 , 1531540533, 6.909499, .009094, -.015273, .034875, -90.063858, -.058218, 1771.266, -2014.750, 928.659, 179.965, .079, 6.851"
1760042162.3421466,"09-OCT-25 14:33 , 1531540533, 6.952907, .009102, -.015286, .034871, -90.063858, -.058225, 1771.120, -2013.553, 928.659, 179.965, .079, 6.895"
1760042162.399209,"09-OCT-25 14:33 , 1531540533, 6.990855, .009111, -.015295, .034871, -90.063858, -.058225, 1770.993, -2012.506, 928.659, 179.965, .079, 6.933"
1760042162.462322,"09-OCT-25 14:33 , 1531540533, 7.034209, .009116, -.015308, .034871, -90.063858, -.058225, 1770.846, -2011.311, 928.658, 179.965, .079, 6.976"
1760042162.5182269,"09-OCT-25 14:33 , 1531540533, 7.072159, .009124, -.015320, .034871, -90.063858, -.058231, 1770.717, -2010.264, 928.658, 179.965, .079, 7.014"
1760042162.5821414,"09-OCT-25 14:33 , 1531540533, 7.115442, .009133, -.015333, .034871, -90.063858, -.058231, 1770.569, -2009.071, 928.658, 179.965, .079, 7.057"
1760042162.6402183,"09-OCT-25 14:33 , 1531540533, 7.153413, .009138, -.015343, .034871, -90.063858, -.058231, 1770.438, -2008.025, 928.658, 179.965, .079, 7.095"
1760042162.711581,"09-OCT-25 14:33 , 1531540533, 7.202222, .009147, -.015358, .034871, -90.063858, -.058238, 1770.269, -2006.679, 928.657, 179.965, .079, 7.144"
1760042162.7662146,"09-OCT-25 14:33 , 1531540533, 7.240050, .009155, -.015371, .034871, -90.063858, -.058238, 1770.137, -2005.637, 928.657, 179.965, .079, 7.182"
1760042162.8311174,"09-OCT-25 14:33 , 1531540533, 7.283303, .009163, -.015384, .034871, -90.063858, -.058238, 1769.985, -2004.445, 928.657, 179.965, .079, 7.225"
1760042162.8862708,"09-OCT-25 14:33 , 1531540533, 7.321101, .009169, -.015393, .034871, -90.063858, -.058245, 1769.852, -2003.403, 928.657, 179.965, .079, 7.263"
1760042162.9513454,"09-OCT-25 14:33 , 1531540533, 7.364213, .009177, -.015406, .034871, -90.063858, -.058245, 1769.699, -2002.215, 928.656, 179.965, .079, 7.306"
1760042163.0060964,"09-OCT-25 14:33 , 1531540533, 7.402018, .009185, -.015418, .034866, -90.063858, -.058245, 1769.565, -2001.174, 928.656, 179.965, .079, 7.344"
1760042163.0710983,"09-OCT-25 14:33 , 1531540533, 7.445250, .009191, -.015431, .034866, -90.063858, -.058252, 1769.410, -1999.983, 928.656, 179.965, .079, 7.387"
1760042163.1262422,"09-OCT-25 14:33 , 1531540533, 7.483000, .009199, -.015440, .034866, -90.063858, -.058252, 1769.274, -1998.943, 928.655, 179.965, .079, 7.425"
1760042163.183035,"09-OCT-25 14:33 , 1531540533, 7.520674, .009204, -.015453, .034866, -90.063858, -.058252, 1769.137, -1997.905, 928.655, 179.965, .079, 7.462"
1760042163.2461936,"09-OCT-25 14:33 , 1531540533, 7.563977, .009213, -.015465, .034866, -90.063858, -.058259, 1768.980, -1996.712, 928.655, 179.965, .079, 7.506"
1760042163.3033905,"09-OCT-25 14:33 , 1531540533, 7.601793, .009221, -.015478, .034866, -90.063858, -.058259, 1768.841, -1995.671, 928.655, 179.965, .079, 7.543"
1760042163.3670914,"09-OCT-25 14:33 , 1531540533, 7.645153, .009229, -.015491, .034866, -90.063858, -.058259, 1768.682, -1994.477, 928.654, 179.965, .079, 7.587"
1760042163.4222016,"09-OCT-25 14:33 , 1531540533, 7.683020, .009235, -.015500, .034866, -90.063858, -.058265, 1768.542, -1993.435, 928.654, 179.965, .079, 7.625"
1760042163.4863567,"09-OCT-25 14:33 , 1531540534, 7.725804, .009243, -.015513, .034866, -90.063858, -.058265, 1768.383, -1992.257, 928.654, 179.965, .079, 7.667"
1760042163.5430026,"09-OCT-25 14:33 , 1531540534, 7.763432, .009249, -.015525, .034866, -90.063858, -.058265, 1768.242, -1991.221, 928.654, 179.965, .079, 7.705"
1760042163.606276,"09-OCT-25 14:33 , 1531540534, 7.806497, .009257, -.015538, .034866, -90.063858, -.058272, 1768.080, -1990.036, 928.653, 179.965, .079, 7.748"
1760042163.66298,"09-OCT-25 14:33 , 1531540534, 7.844033, .009265, -.015547, .034862, -90.063858, -.058272, 1767.939, -1989.002, 928.653, 179.965, .079, 7.786"
1760042163.7273211,"09-OCT-25 14:33 , 1531540534, 7.887198, .009273, -.015560, .034862, -90.063858, -.058272, 1767.775, -1987.814, 928.653, 179.965, .079, 7.829"
1760042163.7835033,"09-OCT-25 14:33 , 1531540534, 7.925110, .009279, -.015573, .034862, -90.063858, -.058279, 1767.630, -1986.771, 928.653, 179.965, .079, 7.867"
1760042163.8461418,"09-OCT-25 14:33 , 1531540534, 7.968408, .009287, -.015585, .034862, -90.063858, -.058279, 1767.464, -1985.580, 928.652, 179.965, .079, 7.910"
1760042163.902348,"09-OCT-25 14:33 , 1531540534, 8.006152, .009293, -.015598, .034862, -90.063858, -.058279, 1767.319, -1984.542, 928.652, 179.965, .079, 7.948"
1760042163.9674778,"09-OCT-25 14:33 , 1531540534, 8.049250, .009301, -.015610, .034862, -90.063858, -.058286, 1767.152, -1983.356, 928.652, 179.965, .079, 7.991"
1760042164.0221999,"09-OCT-25 14:33 , 1531540534, 8.086911, .009309, -.015620, .034862, -90.063858, -.058286, 1767.005, -1982.320, 928.651, 179.965, .079, 8.029"
1760042164.0783038,"09-OCT-25 14:33 , 1531540534, 8.124524, .009315, -.015633, .034862, -90.063858, -.058286, 1766.858, -1981.286, 928.651, 179.965, .079, 8.066"
1760042164.1431162,"09-OCT-25 14:33 , 1531540534, 8.167410, .009323, -.015645, .034862, -90.063858, -.058293, 1766.690, -1980.106, 928.651, 179.965, .079, 8.109"
1760042164.1998737,"09-OCT-25 14:33 , 1531540534, 8.204906, .009329, -.015655, .034862, -90.063858, -.058293, 1766.542, -1979.075, 928.651, 179.965, .079, 8.147"
1760042164.2634292,"09-OCT-25 14:33 , 1531540534, 8.247965, .009337, -.015667, .034862, -90.063835, -.058293, 1766.371, -1977.891, 928.650, 179.965, .079, 8.190"
1760042164.3192804,"09-OCT-25 14:33 , 1531540534, 8.285644, .009345, -.015680, .034858, -90.063835, -.058293, 1766.220, -1976.855, 928.650, 179.965, .079, 8.227"
1760042164.3821552,"09-OCT-25 14:33 , 1531540534, 8.328679, .009353, -.015692, .034858, -90.063835, -.058299, 1766.048, -1975.672, 928.650, 179.965, .079, 8.270"
1760042164.4393244,"09-OCT-25 14:33 , 1531540534, 8.366215, .009359, -.015702, .034858, -90.063835, -.058299, 1765.897, -1974.640, 928.650, 179.965, .079, 8.308"
1760042164.5033002,"09-OCT-25 14:33 , 1531540534, 8.409210, .009367, -.015714, .034858, -90.063835, -.058299, 1765.723, -1973.459, 928.649, 179.965, .079, 8.351"
1760042164.5582132,"09-OCT-25 14:33 , 1531540534, 8.446817, .009373, -.015727, .034858, -90.063835, -.058306, 1765.570, -1972.425, 928.649, 179.965, .079, 8.388"
1760042164.6248937,"09-OCT-25 14:33 , 1531540534, 8.489793, .009381, -.015740, .034858, -90.063835, -.058306, 1765.395, -1971.244, 928.649, 179.965, .079, 8.431"
1760042164.6783063,"09-OCT-25 14:33 , 1531540534, 8.527452, .009389, -.015752, .034858, -90.063835, -.058306, 1765.240, -1970.210, 928.648, 179.965, .079, 8.469"
1760042164.74327,"09-OCT-25 14:33 , 1531540534, 8.570366, .009395, -.015765, .034858, -90.063835, -.058313, 1765.063, -1969.031, 928.648, 179.965, .079, 8.512"
1760042164.7997937,"09-OCT-25 14:33 , 1531540534, 8.607923, .009403, -.015774, .034858, -90.063835, -.058313, 1764.907, -1967.999, 928.648, 179.965, .079, 8.550"
1760042164.8621426,"09-OCT-25 14:33 , 1531540534, 8.650805, .009411, -.015787, .034858, -90.063835, -.058313, 1764.729, -1966.821, 928.648, 179.965, .079, 8.592"
1760042164.9195642,"09-OCT-25 14:33 , 1531540534, 8.688460, .009417, -.015800, .034858, -90.063835, -.058320, 1764.572, -1965.787, 928.647, 179.965, .079, 8.630"
1760042164.9759831,"09-OCT-25 14:33 , 1531540534, 8.726052, .009425, -.015809, .034853, -90.063835, -.058320, 1764.414, -1964.755, 928.647, 179.965, .079, 8.668"
1760042165.0395596,"09-OCT-25 14:33 , 1531540534, 8.768759, .009433, -.015822, .034853, -90.063835, -.058320, 1764.234, -1963.582, 928.647, 179.965, .079, 8.710"
1760042165.0941815,"09-OCT-25 14:33 , 1531540534, 8.806333, .009439, -.015834, .034853, -90.063835, -.058326, 1764.074, -1962.550, 928.647, 179.965, .079, 8.748"
1760042165.1582878,"09-OCT-25 14:33 , 1531540534, 8.849236, .009447, -.015847, .034853, -90.063835, -.058326, 1763.892, -1961.372, 928.646, 179.965, .079, 8.791"
1760042165.214147,"09-OCT-25 14:33 , 1531540534, 8.886662, .009453, -.015856, .034853, -90.063835, -.058326, 1763.732, -1960.345, 928.646, 179.965, .079, 8.828"
1760042165.2781742,"09-OCT-25 14:33 , 1531540534, 8.929464, .009461, -.015869, .034853, -90.063835, -.058333, 1763.548, -1959.170, 928.646, 179.965, .079, 8.871"
1760042165.3351758,"09-OCT-25 14:33 , 1531540534, 8.966860, .009469, -.015882, .034853, -90.063835, -.058333, 1763.387, -1958.144, 928.646, 179.965, .079, 8.908"
1760042165.3982036,"09-OCT-25 14:33 , 1531540534, 9.009581, .009475, -.015894, .034853, -90.063835, -.058333, 1763.201, -1956.972, 928.645, 179.965, .079, 8.951"
1760042165.4550743,"09-OCT-25 14:33 , 1531540535, 9.046928, .009483, -.015904, .034853, -90.063835, -.058340, 1763.039, -1955.947, 928.645, 179.965, .079, 8.989"
1760042165.5196137,"09-OCT-25 14:33 , 1531540535, 9.089563, .009491, -.015916, .034853, -90.063835, -.058340, 1762.853, -1954.777, 928.645, 179.965, .079, 9.031"
1760042165.5750885,"09-OCT-25 14:33 , 1531540535, 9.126815, .009497, -.015929, .034853, -90.063835, -.058340, 1762.689, -1953.756, 928.645, 179.965, .079, 9.068"
1760042165.6382368,"09-OCT-25 14:33 , 1531540535, 9.169294, .009505, -.015941, .034849, -90.063835, -.058347, 1762.502, -1952.590, 928.644, 179.965, .079, 9.111"
1760042165.695234,"09-OCT-25 14:33 , 1531540535, 9.206409, .009511, -.015951, .034849, -90.063835, -.058347, 1762.337, -1951.573, 928.644, 179.965, .079, 9.148"
1760042165.7582827,"09-OCT-25 14:33 , 1531540535, 9.248748, .009519, -.015963, .034849, -90.063835, -.058347, 1762.149, -1950.411, 928.644, 179.965, .079, 9.190"
1760042165.8150332,"09-OCT-25 14:33 , 1531540535, 9.285725, .009527, -.015976, .034849, -90.063835, -.058354, 1761.984, -1949.398, 928.643, 179.965, .079, 9.227"
1760042165.8713431,"09-OCT-25 14:33 , 1531540535, 9.322638, .009533, -.015986, .034849, -90.063835, -.058354, 1761.818, -1948.386, 928.643, 179.965, .079, 9.264"
1760042165.9341955,"09-OCT-25 14:33 , 1531540535, 9.364710, .009541, -.015998, .034849, -90.063835, -.058354, 1761.629, -1947.232, 928.643, 179.965, .079, 9.306"
1760042165.991797,"09-OCT-25 14:33 , 1531540535, 9.401428, .009546, -.016011, .034849, -90.063835, -.058354, 1761.463, -1946.226, 928.643, 179.965, .079, 9.343"
1760042166.0542786,"09-OCT-25 14:33 , 1531540535, 9.443316, .009555, -.016023, .034849, -90.063835, -.058360, 1761.272, -1945.078, 928.642, 179.965, .079, 9.385"
1760042166.1111472,"09-OCT-25 14:33 , 1531540535, 9.479861, .009560, -.016033, .034849, -90.063835, -.058360, 1761.106, -1944.076, 928.642, 179.965, .079, 9.421"
1760042166.174265,"09-OCT-25 14:33 , 1531540535, 9.521465, .009568, -.016045, .034849, -90.063835, -.058360, 1760.915, -1942.936, 928.642, 179.965, .079, 9.463"
1760042166.2313907,"09-OCT-25 14:33 , 1531540535, 9.557744, .009574, -.016055, .034849, -90.063835, -.058367, 1760.748, -1941.943, 928.642, 179.965, .079, 9.499"
1760042166.2942142,"09-OCT-25 14:33 , 1531540535, 9.599024, .009582, -.016067, .034845, -90.063835, -.058367, 1760.558, -1940.812, 928.641, 179.965, .079, 9.541"
1760042166.3512795,"09-OCT-25 14:33 , 1531540535, 9.634950, .009588, -.016080, .034845, -90.063835, -.058367, 1760.391, -1939.828, 928.641, 179.965, .079, 9.577"
1760042166.4178104,"09-OCT-25 14:33 , 1531540535, 9.675749, .009596, -.016090, .034845, -90.063828, -.058374, 1760.202, -1938.710, 928.641, 179.965, .079, 9.617"
1760042166.4711378,"09-OCT-25 14:33 , 1531540535, 9.711174, .009602, -.016102, .034845, -90.063828, -.058374, 1760.036, -1937.740, 928.641, 179.965, .079, 9.653"
1760042166.5350697,"09-OCT-25 14:33 , 1531540535, 9.751235, .009610, -.016115, .034845, -90.063828, -.058374, 1759.848, -1936.643, 928.640, 179.965, .079, 9.693"
1760042166.5923636,"09-OCT-25 14:33 , 1531540535, 9.785567, .009615, -.016124, .034845, -90.063828, -.058381, 1759.687, -1935.703, 928.640, 179.965, .079, 9.727"
1760042166.654226,"09-OCT-25 14:33 , 1531540535, 9.823267, .009624, -.016134, .034845, -90.063828, -.058381, 1759.509, -1934.671, 928.640, 179.965, .079, 9.765"
1760042166.7112117,"09-OCT-25 14:33 , 1531540535, 9.854291, .009629, -.016143, .034845, -90.063828, -.058381, 1759.362, -1933.822, 928.640, 179.965, .079, 9.796"
1760042166.767394,"09-OCT-25 14:33 , 1531540535, 9.882957, .009635, -.016153, .034845, -90.063828, -.058381, 1759.225, -1933.037, 928.640, 179.965, .079, 9.825"
1760042166.8311007,"09-OCT-25 14:33 , 1531540535, 9.912269, .009640, -.016162, .034845, -90.063828, -.058388, 1759.086, -1932.235, 928.639, 179.965, .079, 9.854"
1760042166.887343,"09-OCT-25 14:33 , 1531540535, 9.934501, .009643, -.016168, .034845, -90.063828, -.058388, 1758.979, -1931.627, 928.639, 179.965, .079, 9.876"
1760042166.951446,"09-OCT-25 14:33 , 1531540535, 9.955667, .009648, -.016175, .034845, -90.063828, -.058388, 1758.878, -1931.047, 928.639, 179.965, .079, 9.897"
1760042167.0090594,"09-OCT-25 14:33 , 1531540535, 9.970338, .009651, -.016178, .034845, -90.063828, -.058388, 1758.807, -1930.646, 928.639, 179.965, .079, 9.912"
1760042167.0712845,"09-OCT-25 14:33 , 1531540535, 9.982737, .009651, -.016181, .034845, -90.063828, -.058388, 1758.748, -1930.307, 928.639, 179.965, .079, 9.924"
1760042167.126215,"09-OCT-25 14:33 , 1531540535, 9.989987, .009654, -.016184, .034845, -90.063828, -.058388, 1758.713, -1930.108, 928.639, 179.965, .079, 9.932"
1760042167.1917806,"09-OCT-25 14:33 , 1531540535, 9.994699, .009654, -.016184, .034845, -90.063828, -.058388, 1758.690, -1929.979, 928.639, 179.965, .079, 9.936"
1760042167.2545834,"09-OCT-25 14:33 , 1531540535, 9.996499, .009654, -.016187, .034845, -90.063828, -.058388, 1758.682, -1929.930, 928.639, 179.965, .079, 9.938"
1760042167.3198566,"09-OCT-25 14:33 , 1531540535, 9.996732, .009654, -.016187, .034845, -90.063828, -.058388, 1758.681, -1929.924, 928.639, 179.965, .079, 9.938"
1760042167.3742046,"09-OCT-25 14:33 , 1531540535, 9.996648, .009654, -.016187, .034845, -90.063828, -.058388, 1758.681, -1929.926, 928.639, 179.965, .079, 9.938"
1760042167.438397,"09-OCT-25 14:33 , 1531540535, 9.996541, .009654, -.016187, .034845, -90.063828, -.058388, 1758.681, -1929.929, 928.639, 179.965, .079, 9.938"
1760042167.4941773,"09-OCT-25 14:33 , 1531540536, 9.996451, .009654, -.016187, .034845, -90.063828, -.058388, 1758.682, -1929.932, 928.639, 179.965, .079, 9.938"
1760042167.5582542,"09-OCT-25 14:33 , 1531540536, 9.996266, .009654, -.016187, .034845, -90.063828, -.058388, 1758.683, -1929.937, 928.639, 179.965, .079, 9.938"
1760042167.6144176,"09-OCT-25 14:33 , 1531540536, 9.995997, .009654, -.016187, .034845, -90.063828, -.058388, 1758.684, -1929.944, 928.639, 179.965, .079, 9.938"
1760042167.6782298,"09-OCT-25 14:33 , 1531540536, 9.995487, .009654, -.016187, .034845, -90.063828, -.058388, 1758.687, -1929.958, 928.639, 179.965, .079, 9.937"
1760042167.7358084,"09-OCT-25 14:33 , 1531540536, 9.994770, .009654, -.016184, .034845, -90.063828, -.058388, 1758.690, -1929.978, 928.639, 179.965, .079, 9.936"
1760042167.792121,"09-OCT-25 14:33 , 1531540536, 9.993684, .009654, -.016184, .034845, -90.063828, -.058388, 1758.695, -1930.007, 928.639, 179.965, .079, 9.935"
1760042167.8551102,"09-OCT-25 14:33 , 1531540536, 9.991788, .009654, -.016184, .034845, -90.063828, -.058388, 1758.704, -1930.059, 928.639, 179.965, .079, 9.933"
1760042167.9112515,"09-OCT-25 14:33 , 1531540536, 9.989322, .009654, -.016184, .034845, -90.063828, -.058388, 1758.716, -1930.127, 928.639, 179.965, .079, 9.931"
1760042167.9751415,"09-OCT-25 14:33 , 1531540536, 9.985217, .009654, -.016184, .034845, -90.063828, -.058388, 1758.736, -1930.239, 928.639, 179.965, .079, 9.927"
1760042168.0310726,"09-OCT-25 14:33 , 1531540536, 9.980112, .009651, -.016181, .034845, -90.063828, -.058388, 1758.760, -1930.379, 928.639, 179.965, .079, 9.922"
1760042168.0951421,"09-OCT-25 14:33 , 1531540536, 9.971956, .009651, -.016178, .034845, -90.063828, -.058388, 1758.800, -1930.602, 928.639, 179.965, .079, 9.914"
1760042168.151746,"09-OCT-25 14:33 , 1531540536, 9.962182, .009648, -.016175, .034845, -90.063828, -.058388, 1758.847, -1930.869, 928.639, 179.965, .079, 9.904"
1760042168.2143419,"09-OCT-25 14:33 , 1531540536, 9.947103, .009646, -.016171, .034845, -90.063828, -.058388, 1758.919, -1931.282, 928.639, 179.965, .079, 9.889"
1760042168.2713583,"09-OCT-25 14:33 , 1531540536, 9.929584, .009643, -.016165, .034845, -90.063828, -.058388, 1759.003, -1931.761, 928.639, 179.965, .079, 9.871"
1760042168.3343859,"09-OCT-25 14:33 , 1531540536, 9.903333, .009637, -.016159, .034845, -90.063828, -.058381, 1759.128, -1932.480, 928.639, 179.965, .079, 9.845"
1760042168.3920007,"09-OCT-25 14:33 , 1531540536, 9.873864, .009632, -.016149, .034845, -90.063828, -.058381, 1759.269, -1933.286, 928.640, 179.965, .079, 9.815"
1760042168.4624772,"09-OCT-25 14:33 , 1531540536, 9.830304, .009624, -.016137, .034845, -90.063828, -.058381, 1759.475, -1934.479, 928.640, 179.965, .079, 9.772"
1760042168.5183218,"09-OCT-25 14:33 , 1531540536, 9.795732, .009618, -.016127, .034845, -90.063828, -.058381, 1759.639, -1935.425, 928.640, 179.965, .079, 9.737"
1760042168.5822694,"09-OCT-25 14:33 , 1531540536, 9.755328, .009610, -.016115, .034845, -90.063828, -.058374, 1759.829, -1936.531, 928.640, 179.965, .079, 9.697"
1760042168.6394267,"09-OCT-25 14:33 , 1531540536, 9.719369, .009604, -.016105, .034845, -90.063828, -.058374, 1759.998, -1937.516, 928.641, 179.965, .079, 9.661"
1760042168.7022748,"09-OCT-25 14:33 , 1531540536, 9.678086, .009596, -.016093, .034845, -90.063828, -.058374, 1760.191, -1938.646, 928.641, 179.965, .079, 9.620"
1760042168.7594469,"09-OCT-25 14:33 , 1531540536, 9.641835, .009590, -.016080, .034845, -90.063835, -.058367, 1760.359, -1939.639, 928.641, 179.965, .079, 9.583"
1760042168.8152938,"09-OCT-25 14:33 , 1531540536, 9.605463, .009585, -.016071, .034845, -90.063835, -.058367, 1760.528, -1940.635, 928.641, 179.965, .079, 9.547"
1760042168.8794866,"09-OCT-25 14:33 , 1531540536, 9.563847, .009577, -.016058, .034849, -90.063835, -.058367, 1760.720, -1941.775, 928.642, 179.965, .079, 9.505"
1760042168.9352198,"09-OCT-25 14:33 , 1531540536, 9.527508, .009568, -.016049, .034849, -90.063835, -.058360, 1760.887, -1942.771, 928.642, 179.965, .079, 9.469"
1760042168.9983175,"09-OCT-25 14:33 , 1531540536, 9.485416, .009563, -.016036, .034849, -90.063835, -.058360, 1761.080, -1943.924, 928.642, 179.965, .079, 9.427"
1760042169.0551882,"09-OCT-25 14:33 , 1531540536, 9.448642, .009555, -.016023, .034849, -90.063835, -.058360, 1761.248, -1944.932, 928.642, 179.965, .079, 9.390"
1760042169.1195061,"09-OCT-25 14:33 , 1531540536, 9.406966, .009546, -.016011, .034849, -90.063835, -.058360, 1761.437, -1946.074, 928.643, 179.965, .079, 9.349"
1760042169.1742387,"09-OCT-25 14:33 , 1531540536, 9.370810, .009541, -.016001, .034849, -90.063835, -.058354, 1761.601, -1947.065, 928.643, 179.965, .079, 9.312"
1760042169.238366,"09-OCT-25 14:33 , 1531540536, 9.328924, .009533, -.015989, .034849, -90.063835, -.058354, 1761.790, -1948.213, 928.643, 179.965, .079, 9.271"
1760042169.2956572,"09-OCT-25 14:33 , 1531540536, 9.292054, .009527, -.015976, .034849, -90.063835, -.058354, 1761.955, -1949.224, 928.643, 179.965, .079, 9.234"
1760042169.3582325,"09-OCT-25 14:33 , 1531540536, 9.249951, .009519, -.015963, .034849, -90.063835, -.058347, 1762.144, -1950.379, 928.644, 179.965, .079, 9.192"
1760042169.4151776,"09-OCT-25 14:33 , 1531540536, 9.212985, .009513, -.015954, .034849, -90.063835, -.058347, 1762.308, -1951.392, 928.644, 179.965, .079, 9.155"
1760042169.4782877,"09-OCT-25 14:33 , 1531540537, 9.170405, .009505, -.015941, .034849, -90.063835, -.058347, 1762.497, -1952.560, 928.644, 179.965, .079, 9.112"
1760042169.5342126,"09-OCT-25 14:33 , 1531540537, 9.132915, .009497, -.015929, .034849, -90.063835, -.058340, 1762.662, -1953.588, 928.645, 179.965, .079, 9.075"
1760042169.5984287,"09-OCT-25 14:33 , 1531540537, 9.090411, .009491, -.015916, .034853, -90.063835, -.058340, 1762.849, -1954.754, 928.645, 179.965, .079, 9.032"
1760042169.654274,"09-OCT-25 14:33 , 1531540537, 9.053595, .009483, -.015907, .034853, -90.063835, -.058340, 1763.010, -1955.764, 928.645, 179.965, .079, 8.995"
1760042169.7115977,"09-OCT-25 14:33 , 1531540537, 9.016459, .009477, -.015897, .034853, -90.063835, -.058333, 1763.172, -1956.783, 928.645, 179.965, .079, 8.958"
1760042169.7743993,"09-OCT-25 14:33 , 1531540537, 8.973943, .009469, -.015885, .034853, -90.063835, -.058333, 1763.356, -1957.950, 928.646, 179.965, .079, 8.916"
1760042169.8314726,"09-OCT-25 14:33 , 1531540537, 8.936575, .009464, -.015872, .034853, -90.063835, -.058333, 1763.517, -1958.975, 928.646, 179.965, .079, 8.878"
1760042169.8956182,"09-OCT-25 14:33 , 1531540537, 8.894152, .009455, -.015859, .034853, -90.063835, -.058326, 1763.700, -1960.140, 928.646, 179.965, .079, 8.836"
1760042169.9516027,"09-OCT-25 14:33 , 1531540537, 8.857140, .009447, -.015850, .034853, -90.063835, -.058326, 1763.858, -1961.156, 928.646, 179.965, .079, 8.799"
1760042170.0150728,"09-OCT-25 14:33 , 1531540537, 8.814359, .009442, -.015837, .034853, -90.063835, -.058326, 1764.041, -1962.330, 928.647, 179.965, .079, 8.756"
1760042170.0716095,"09-OCT-25 14:33 , 1531540537, 8.776972, .009433, -.015825, .034853, -90.063835, -.058320, 1764.199, -1963.356, 928.647, 179.965, .079, 8.719"
1760042170.1354785,"09-OCT-25 14:33 , 1531540537, 8.734006, .009425, -.015812, .034853, -90.063835, -.058320, 1764.380, -1964.536, 928.647, 179.965, .079, 8.676"
1760042170.1912427,"09-OCT-25 14:33 , 1531540537, 8.696423, .009420, -.015800, .034853, -90.063835, -.058320, 1764.538, -1965.568, 928.647, 179.965, .079, 8.638"
1760042170.2551882,"09-OCT-25 14:33 , 1531540537, 8.653447, .009411, -.015787, .034858, -90.063835, -.058313, 1764.718, -1966.749, 928.648, 179.965, .079, 8.595"
1760042170.3112526,"09-OCT-25 14:33 , 1531540537, 8.615834, .009403, -.015777, .034858, -90.063835, -.058313, 1764.875, -1967.782, 928.648, 179.965, .079, 8.557"
1760042170.375261,"09-OCT-25 14:33 , 1531540537, 8.572796, .009397, -.015765, .034858, -90.063835, -.058313, 1765.053, -1968.964, 928.648, 179.965, .079, 8.514"
1760042170.431154,"09-OCT-25 14:33 , 1531540537, 8.535413, .009389, -.015752, .034858, -90.063835, -.058306, 1765.207, -1969.991, 928.648, 179.965, .079, 8.477"
1760042170.4977171,"09-OCT-25 14:33 , 1531540537, 8.492554, .009381, -.015740, .034858, -90.063835, -.058306, 1765.383, -1971.168, 928.649, 179.965, .079, 8.434"
1760042170.551344,"09-OCT-25 14:33 , 1531540537, 8.454911, .009375, -.015730, .034858, -90.063835, -.058306, 1765.537, -1972.203, 928.649, 179.965, .079, 8.397"
1760042170.6096866,"09-OCT-25 14:33 , 1531540537, 8.417444, .009367, -.015718, .034858, -90.063835, -.058306, 1765.690, -1973.232, 928.649, 179.965, .079, 8.359"
1760042170.6711946,"09-OCT-25 14:33 , 1531540537, 8.374249, .009362, -.015705, .034858, -90.063835, -.058299, 1765.865, -1974.420, 928.650, 179.965, .079, 8.316"
1760042170.7296798,"09-OCT-25 14:33 , 1531540537, 8.336572, .009353, -.015696, .034858, -90.063835, -.058299, 1766.017, -1975.455, 928.650, 179.965, .079, 8.278"
1760042170.7912931,"09-OCT-25 14:33 , 1531540537, 8.293489, .009345, -.015683, .034858, -90.063835, -.058299, 1766.189, -1976.639, 928.650, 179.965, .079, 8.235"
1760042170.8470893,"09-OCT-25 14:33 , 1531540537, 8.255686, .009340, -.015670, .034858, -90.063835, -.058293, 1766.340, -1977.679, 928.650, 179.965, .079, 8.197"
1760042170.9113445,"09-OCT-25 14:33 , 1531540537, 8.212668, .009331, -.015658, .034862, -90.063858, -.058293, 1766.511, -1978.862, 928.651, 179.965, .079, 8.154"
1760042170.9664252,"09-OCT-25 14:33 , 1531540537, 8.175040, .009323, -.015645, .034862, -90.063858, -.058293, 1766.659, -1979.896, 928.651, 179.965, .079, 8.117"
1760042171.031487,"09-OCT-25 14:33 , 1531540537, 8.131847, .009317, -.015633, .034862, -90.063858, -.058286, 1766.829, -1981.084, 928.651, 179.965, .079, 8.074"
1760042171.0862975,"09-OCT-25 14:33 , 1531540537, 8.094207, .009309, -.015623, .034862, -90.063858, -.058286, 1766.977, -1982.119, 928.651, 179.965, .079, 8.036"
1760042171.1516998,"09-OCT-25 14:33 , 1531540537, 8.051552, .009301, -.015610, .034862, -90.063858, -.058286, 1767.143, -1983.293, 928.652, 179.965, .079, 7.993"
1760042171.2072687,"09-OCT-25 14:33 , 1531540537, 8.014315, .009295, -.015598, .034862, -90.063858, -.058279, 1767.287, -1984.317, 928.652, 179.965, .079, 7.956"
1760042171.2714736,"09-OCT-25 14:33 , 1531540537, 7.971065, .009287, -.015585, .034862, -90.063858, -.058279, 1767.454, -1985.507, 928.652, 179.965, .079, 7.913"
1760042171.3271825,"09-OCT-25 14:33 , 1531540537, 7.933153, .009282, -.015576, .034862, -90.063858, -.058279, 1767.599, -1986.550, 928.652, 179.965, .079, 7.875"
1760042171.3912203,"09-OCT-25 14:33 , 1531540537, 7.889838, .009273, -.015563, .034862, -90.063858, -.058272, 1767.765, -1987.742, 928.653, 179.965, .079, 7.832"
1760042171.4472141,"09-OCT-25 14:33 , 1531540538, 7.852168, .009265, -.015551, .034862, -90.063858, -.058272, 1767.908, -1988.778, 928.653, 179.965, .079, 7.794"
1760042171.5031552,"09-OCT-25 14:33 , 1531540538, 7.814256, .009260, -.015541, .034866, -90.063858, -.058272, 1768.051, -1989.822, 928.653, 179.965, .079, 7.756"
1760042171.5671895,"09-OCT-25 14:33 , 1531540538, 7.770878, .009251, -.015528, .034866, -90.063858, -.058265, 1768.214, -1991.016, 928.654, 179.965, .079, 7.713"
1760042171.622261,"09-OCT-25 14:33 , 1531540538, 7.732913, .009243, -.015516, .034866, -90.063858, -.058265, 1768.356, -1992.061, 928.654, 179.965, .079, 7.675"
1760042171.6862388,"09-OCT-25 14:33 , 1531540538, 7.689621, .009238, -.015503, .034866, -90.063858, -.058265, 1768.517, -1993.253, 928.654, 179.965, .079, 7.631"
1760042171.7423832,"09-OCT-25 14:33 , 1531540538, 7.651769, .009229, -.015491, .034866, -90.063858, -.058259, 1768.658, -1994.295, 928.654, 179.965, .079, 7.593"
1760042171.8062649,"09-OCT-25 14:33 , 1531540538, 7.608567, .009221, -.015478, .034866, -90.063858, -.058259, 1768.816, -1995.484, 928.655, 179.965, .079, 7.550"
1760042171.862388,"09-OCT-25 14:33 , 1531540538, 7.570861, .009215, -.015469, .034866, -90.063858, -.058259, 1768.955, -1996.523, 928.655, 179.965, .079, 7.513"
1760042171.927608,"09-OCT-25 14:33 , 1531540538, 7.527647, .009207, -.015456, .034866, -90.063858, -.058252, 1769.112, -1997.713, 928.655, 179.965, .079, 7.469"
1760042171.9822505,"09-OCT-25 14:33 , 1531540538, 7.489720, .009199, -.015443, .034866, -90.063858, -.058252, 1769.250, -1998.758, 928.655, 179.965, .079, 7.431"
1760042172.0472126,"09-OCT-25 14:33 , 1531540538, 7.446581, .009193, -.015431, .034866, -90.063858, -.058252, 1769.405, -1999.946, 928.656, 179.965, .079, 7.388"
1760042172.1058724,"09-OCT-25 14:33 , 1531540538, 7.408840, .009185, -.015418, .034866, -90.063858, -.058245, 1769.540, -2000.986, 928.656, 179.965, .079, 7.351"
1760042172.1662693,"09-OCT-25 14:33 , 1531540538, 7.365924, .009177, -.015406, .034871, -90.063858, -.058245, 1769.693, -2002.168, 928.656, 179.965, .079, 7.308"
1760042172.2222815,"09-OCT-25 14:33 , 1531540538, 7.328296, .009171, -.015396, .034871, -90.063858, -.058245, 1769.827, -2003.205, 928.656, 179.965, .079, 7.270"
1760042172.2873049,"09-OCT-25 14:33 , 1531540538, 7.285109, .009163, -.015384, .034871, -90.063858, -.058238, 1769.979, -2004.395, 928.657, 179.965, .079, 7.227"
1760042172.342325,"09-OCT-25 14:33 , 1531540538, 7.247331, .009155, -.015371, .034871, -90.063858, -.058238, 1770.111, -2005.436, 928.657, 179.965, .079, 7.189"
1760042172.3984823,"09-OCT-25 14:33 , 1531540538, 7.209736, .009149, -.015361, .034871, -90.063858, -.058238, 1770.243, -2006.472, 928.657, 179.965, .079, 7.151"
1760042172.4631426,"09-OCT-25 14:33 , 1531540538, 7.166779, .009141, -.015349, .034871, -90.063858, -.058231, 1770.392, -2007.656, 928.658, 179.965, .079, 7.109"
1760042172.51999,"09-OCT-25 14:33 , 1531540538, 7.128921, .009135, -.015336, .034871, -90.063858, -.058231, 1770.522, -2008.700, 928.658, 179.965, .079, 7.071"
1760042172.5833411,"09-OCT-25 14:33 , 1531540538, 7.085519, .009127, -.015324, .034871, -90.063858, -.058231, 1770.671, -2009.896, 928.658, 179.965, .079, 7.027"
1760042172.6393547,"09-OCT-25 14:33 , 1531540538, 7.047548, .009119, -.015314, .034871, -90.063858, -.058231, 1770.801, -2010.943, 928.658, 179.965, .079, 6.989"
1760042172.7023392,"09-OCT-25 14:33 , 1531540538, 7.004319, .009111, -.015298, .034871, -90.063858, -.058225, 1770.947, -2012.135, 928.659, 179.965, .079, 6.946"
1760042172.758305,"09-OCT-25 14:33 , 1531540538, 6.966485, .009105, -.015289, .034871, -90.063858, -.058225, 1771.075, -2013.178, 928.659, 179.965, .079, 6.908"
1760042172.8223147,"09-OCT-25 14:33 , 1531540538, 6.923121, .009097, -.015276, .034875, -90.063858, -.058218, 1771.220, -2014.374, 928.659, 179.965, .079, 6.865"
1760042172.8795738,"09-OCT-25 14:33 , 1531540538, 6.885460, .009091, -.015264, .034875, -90.063858, -.058218, 1771.346, -2015.413, 928.659, 179.965, .079, 6.827"
1760042172.943413,"09-OCT-25 14:33 , 1531540538, 6.842196, .009083, -.015251, .034875, -90.063858, -.058218, 1771.489, -2016.606, 928.660, 179.965, .079, 6.784"
1760042173.0020092,"09-OCT-25 14:33 , 1531540538, 6.804341, .009075, -.015242, .034875, -90.063858, -.058218, 1771.614, -2017.650, 928.660, 179.965, .079, 6.746"
1760042173.0623076,"09-OCT-25 14:33 , 1531540538, 6.761103, .009067, -.015229, .034875, -90.063858, -.058211, 1771.755, -2018.843, 928.660, 179.965, .079, 6.703"
1760042173.1182892,"09-OCT-25 14:33 , 1531540538, 6.723132, .009061, -.015216, .034875, -90.063858, -.058211, 1771.879, -2019.891, 928.660, 179.965, .079, 6.665"
1760042173.1837013,"09-OCT-25 14:33 , 1531540538, 6.679816, .009053, -.015204, .034875, -90.063858, -.058211, 1772.019, -2021.086, 928.661, 179.965, .079, 6.622"
1760042173.2383595,"09-OCT-25 14:33 , 1531540538, 6.642026, .009047, -.015191, .034875, -90.063858, -.058204, 1772.141, -2022.129, 928.661, 179.965, .079, 6.584"
1760042173.2978644,"09-OCT-25 14:33 , 1531540538, 6.604145, .009039, -.015182, .034875, -90.063858, -.058204, 1772.262, -2023.174, 928.661, 179.965, .079, 6.546"
1760042173.3596542,"09-OCT-25 14:33 , 1531540538, 6.560695, .009031, -.015169, .034875, -90.063858, -.058204, 1772.400, -2024.373, 928.662, 179.965, .078, 6.502"
1760042173.4143145,"09-OCT-25 14:33 , 1531540538, 6.522792, .009025, -.015157, .034875, -90.063858, -.058198, 1772.520, -2025.419, 928.662, 179.965, .078, 6.465"
1760042173.4783244,"09-OCT-25 14:33 , 1531540539, 6.479590, .009017, -.015144, .034879, -90.063858, -.058198, 1772.655, -2026.612, 928.662, 179.965, .078, 6.421"
1760042173.534334,"09-OCT-25 14:33 , 1531540539, 6.441633, .009009, -.015135, .034879, -90.063858, -.058198, 1772.774, -2027.660, 928.662, 179.965, .078, 6.383"
1760042173.599798,"09-OCT-25 14:33 , 1531540539, 6.398255, .009003, -.015122, .034879, -90.063858, -.058191, 1772.908, -2028.857, 928.663, 179.965, .078, 6.340"
1760042173.6543345,"09-OCT-25 14:33 , 1531540539, 6.360341, .008995, -.015109, .034879, -90.063858, -.058191, 1773.025, -2029.904, 928.663, 179.965, .078, 6.302"
1760042173.71971,"09-OCT-25 14:33 , 1531540539, 6.317019, .008987, -.015097, .034879, -90.063858, -.058191, 1773.157, -2031.100, 928.663, 179.965, .078, 6.259"
1760042173.7752554,"09-OCT-25 14:33 , 1531540539, 6.279131, .008981, -.015084, .034879, -90.063858, -.058184, 1773.273, -2032.146, 928.663, 179.965, .078, 6.221"
1760042173.8382916,"09-OCT-25 14:33 , 1531540539, 6.235876, .008973, -.015071, .034879, -90.063858, -.058184, 1773.403, -2033.341, 928.664, 179.965, .078, 6.178"
1760042173.8944542,"09-OCT-25 14:33 , 1531540539, 6.198179, .008964, -.015062, .034879, -90.063858, -.058184, 1773.517, -2034.382, 928.664, 179.965, .078, 6.140"
1760042173.9582984,"09-OCT-25 14:33 , 1531540539, 6.154926, .008959, -.015049, .034879, -90.063858, -.058177, 1773.646, -2035.576, 928.664, 179.965, .078, 6.097"
1760042174.0154226,"09-OCT-25 14:33 , 1531540539, 6.116958, .008951, -.015037, .034879, -90.063858, -.058177, 1773.758, -2036.625, 928.664, 179.965, .078, 6.059"
1760042174.078322,"09-OCT-25 14:33 , 1531540539, 6.073538, .008942, -.015024, .034879, -90.063873, -.058177, 1773.886, -2037.825, 928.665, 179.965, .078, 6.015"
1760042174.1351764,"09-OCT-25 14:33 , 1531540539, 6.035572, .008937, -.015012, .034884, -90.063873, -.058170, 1773.997, -2038.874, 928.665, 179.965, .078, 5.977"
1760042174.1917639,"09-OCT-25 14:33 , 1531540539, 5.997640, .008929, -.015002, .034884, -90.063873, -.058170, 1774.107, -2039.922, 928.665, 179.965, .078, 5.939"
1760042174.2543194,"09-OCT-25 14:33 , 1531540539, 5.954199, .008920, -.014990, .034884, -90.063873, -.058170, 1774.232, -2041.122, 928.666, 179.965, .078, 5.896"
1760042174.311785,"09-OCT-25 14:33 , 1531540539, 5.916207, .008915, -.014977, .034884, -90.063873, -.058164, 1774.341, -2042.172, 928.666, 179.965, .078, 5.858"
1760042174.374271,"09-OCT-25 14:33 , 1531540539, 5.872972, .008907, -.014964, .034884, -90.063873, -.058164, 1774.464, -2043.366, 928.666, 179.965, .078, 5.815"
1760042174.4312325,"09-OCT-25 14:33 , 1531540539, 5.835135, .008901, -.014955, .034884, -90.063873, -.058164, 1774.571, -2044.412, 928.666, 179.965, .078, 5.777"
1760042174.4944427,"09-OCT-25 14:33 , 1531540539, 5.791762, .008893, -.014942, .034884, -90.063873, -.058157, 1774.693, -2045.611, 928.667, 179.965, .078, 5.734"
1760042174.5514457,"09-OCT-25 14:33 , 1531540539, 5.753812, .008885, -.014930, .034884, -90.063873, -.058157, 1774.799, -2046.660, 928.667, 179.965, .078, 5.696"
1760042174.6143198,"09-OCT-25 14:33 , 1531540539, 5.710547, .008876, -.014917, .034884, -90.063873, -.058157, 1774.918, -2047.856, 928.667, 179.965, .078, 5.652"
1760042174.6715863,"09-OCT-25 14:33 , 1531540539, 5.672821, .008871, -.014904, .034884, -90.063873, -.058150, 1775.022, -2048.898, 928.667, 179.965, .078, 5.615"
1760042174.7351506,"09-OCT-25 14:33 , 1531540539, 5.629481, .008862, -.014892, .034884, -90.063873, -.058150, 1775.140, -2050.097, 928.668, 179.965, .078, 5.571"
1760042174.791392,"09-OCT-25 14:33 , 1531540539, 5.591617, .008857, -.014882, .034888, -90.063873, -.058150, 1775.243, -2051.144, 928.668, 179.965, .078, 5.533"
1760042174.8554573,"09-OCT-25 14:33 , 1531540539, 5.548260, .008849, -.014870, .034888, -90.063873, -.058143, 1775.359, -2052.342, 928.668, 179.965, .078, 5.490"
1760042174.911942,"09-OCT-25 14:33 , 1531540539, 5.510327, .008840, -.014857, .034888, -90.063873, -.058143, 1775.461, -2053.391, 928.669, 179.965, .078, 5.452"
1760042174.9743316,"09-OCT-25 14:33 , 1531540539, 5.466946, .008832, -.014845, .034888, -90.063873, -.058143, 1775.576, -2054.591, 928.669, 179.965, .078, 5.409"
1760042175.031507,"09-OCT-25 14:33 , 1531540539, 5.429139, .008827, -.014832, .034888, -90.063873, -.058136, 1775.675, -2055.636, 928.669, 179.965, .078, 5.371"
1760042175.0863552,"09-OCT-25 14:33 , 1531540539, 5.391266, .008818, -.014822, .034888, -90.063873, -.058136, 1775.774, -2056.684, 928.669, 179.965, .078, 5.333"
1760042175.1514058,"09-OCT-25 14:33 , 1531540539, 5.347870, .008813, -.014810, .034888, -90.063873, -.058136, 1775.887, -2057.884, 928.670, 179.965, .078, 5.290"
1760042175.2063963,"09-OCT-25 14:33 , 1531540539, 5.309835, .008805, -.014797, .034888, -90.063873, -.058136, 1775.985, -2058.936, 928.670, 179.965, .078, 5.252"
1760042175.2712152,"09-OCT-25 14:33 , 1531540539, 5.266386, .008796, -.014785, .034888, -90.063873, -.058130, 1776.096, -2060.138, 928.670, 179.965, .078, 5.208"
1760042175.3279204,"09-OCT-25 14:33 , 1531540539, 5.228549, .008791, -.014775, .034888, -90.063873, -.058130, 1776.192, -2061.185, 928.670, 179.965, .078, 5.170"
1760042175.3913634,"09-OCT-25 14:33 , 1531540539, 5.185493, .008782, -.014763, .034892, -90.063873, -.058130, 1776.300, -2062.376, 928.671, 179.965, .078, 5.127"
1760042175.4479008,"09-OCT-25 14:33 , 1531540540, 5.147537, .008774, -.014750, .034892, -90.063873, -.058123, 1776.395, -2063.427, 928.671, 179.965, .078, 5.089"
1760042175.5112488,"09-OCT-25 14:33 , 1531540540, 5.104162, .008769, -.014737, .034892, -90.063873, -.058123, 1776.502, -2064.627, 928.671, 179.965, .078, 5.046"
1760042175.5663133,"09-OCT-25 14:33 , 1531540540, 5.066271, .008760, -.014725, .034892, -90.063873, -.058123, 1776.595, -2065.675, 928.671, 179.965, .078, 5.008"
1760042175.6317093,"09-OCT-25 14:33 , 1531540540, 5.022932, .008752, -.014712, .034892, -90.063873, -.058116, 1776.700, -2066.875, 928.672, 179.965, .078, 4.965"
1760042175.6871843,"09-OCT-25 14:33 , 1531540540, 4.985004, .008747, -.014703, .034892, -90.063873, -.058116, 1776.792, -2067.924, 928.672, 179.965, .078, 4.927"
1760042175.7516515,"09-OCT-25 14:33 , 1531540540, 4.941597, .008738, -.014690, .034892, -90.063873, -.058116, 1776.896, -2069.125, 928.672, 179.965, .078, 4.883"
1760042175.806387,"09-OCT-25 14:33 , 1531540540, 4.903694, .008730, -.014678, .034892, -90.063873, -.058109, 1776.986, -2070.175, 928.673, 179.965, .078, 4.846"
1760042175.8713226,"09-OCT-25 14:33 , 1531540540, 4.860394, .008722, -.014665, .034892, -90.063873, -.058109, 1777.088, -2071.373, 928.673, 179.965, .078, 4.802"
1760042175.9277964,"09-OCT-25 14:33 , 1531540540, 4.822505, .008716, -.014655, .034892, -90.063873, -.058109, 1777.177, -2072.422, 928.673, 179.965, .078, 4.764"
1760042175.9832053,"09-OCT-25 14:33 , 1531540540, 4.784636, .008711, -.014643, .034892, -90.063873, -.058103, 1777.265, -2073.470, 928.673, 179.965, .078, 4.726"
1760042176.0481772,"09-OCT-25 14:33 , 1531540540, 4.741317, .008703, -.014630, .034897, -90.063873, -.058103, 1777.365, -2074.669, 928.674, 179.965, .078, 4.683"
1760042176.102363,"09-OCT-25 14:33 , 1531540540, 4.703363, .008694, -.014618, .034897, -90.063873, -.058103, 1777.451, -2075.720, 928.674, 179.965, .078, 4.645"
1760042176.1675692,"09-OCT-25 14:33 , 1531540540, 4.659893, .008686, -.014605, .034897, -90.063873, -.058096, 1777.549, -2076.924, 928.674, 179.965, .078, 4.602"
1760042176.2223861,"09-OCT-25 14:33 , 1531540540, 4.621954, .008680, -.014596, .034897, -90.063873, -.058096, 1777.634, -2077.974, 928.674, 179.965, .078, 4.564"
1760042176.2862875,"09-OCT-25 14:33 , 1531540540, 4.578722, .008672, -.014583, .034897, -90.063873, -.058096, 1777.730, -2079.172, 928.675, 179.965, .078, 4.521"
1760042176.3436558,"09-OCT-25 14:33 , 1531540540, 4.540813, .008664, -.014570, .034897, -90.063873, -.058089, 1777.814, -2080.221, 928.675, 179.965, .078, 4.483"
1760042176.4072564,"09-OCT-25 14:33 , 1531540540, 4.497403, .008658, -.014558, .034897, -90.063873, -.058089, 1777.908, -2081.424, 928.675, 179.965, .078, 4.439"
1760042176.4623451,"09-OCT-25 14:33 , 1531540540, 4.459294, .008650, -.014545, .034897, -90.063873, -.058089, 1777.991, -2082.479, 928.675, 179.965, .078, 4.401"
1760042176.5265265,"09-OCT-25 14:33 , 1531540540, 4.415758, .008642, -.014533, .034897, -90.063873, -.058082, 1778.084, -2083.685, 928.676, 179.965, .078, 4.358"
1760042176.5823033,"09-OCT-25 14:33 , 1531540540, 4.377736, .008636, -.014523, .034897, -90.063873, -.058082, 1778.165, -2084.738, 928.676, 179.965, .078, 4.320"
1760042176.647873,"09-OCT-25 14:33 , 1531540540, 4.334268, .008628, -.014510, .034897, -90.063873, -.058082, 1778.256, -2085.942, 928.676, 179.965, .078, 4.276"
1760042176.7023754,"09-OCT-25 14:33 , 1531540540, 4.296263, .008620, -.014498, .034901, -90.063873, -.058075, 1778.335, -2086.995, 928.677, 179.965, .078, 4.238"
1760042176.7672126,"09-OCT-25 14:33 , 1531540540, 4.252760, .008614, -.014485, .034901, -90.063873, -.058075, 1778.425, -2088.200, 928.677, 179.965, .078, 4.195"
1760042176.8234694,"09-OCT-25 14:33 , 1531540540, 4.214675, .008606, -.014473, .034901, -90.063873, -.058075, 1778.503, -2089.255, 928.677, 179.965, .078, 4.157"
1760042176.8784842,"09-OCT-25 14:33 , 1531540540, 4.176605, .008600, -.014463, .034901, -90.063873, -.058069, 1778.580, -2090.310, 928.677, 179.965, .078, 4.118"
1760042176.9458165,"09-OCT-25 14:33 , 1531540540, 4.133215, .008592, -.014451, .034901, -90.063873, -.058069, 1778.667, -2091.512, 928.678, 179.965, .078, 4.075"
1760042176.998474,"09-OCT-25 14:33 , 1531540540, 4.095234, .008584, -.014438, .034901, -90.063873, -.058069, 1778.743, -2092.565, 928.678, 179.965, .078, 4.037"
1760042177.0623991,"09-OCT-25 14:33 , 1531540540, 4.051803, .008576, -.014425, .034901, -90.063873, -.058062, 1778.828, -2093.768, 928.678, 179.965, .078, 3.994"
1760042177.118429,"09-OCT-25 14:33 , 1531540540, 4.013879, .008570, -.014416, .034901, -90.063873, -.058062, 1778.902, -2094.819, 928.678, 179.965, .078, 3.956"
1760042177.1824038,"09-OCT-25 14:33 , 1531540540, 3.970411, .008562, -.014400, .034901, -90.063873, -.058062, 1778.986, -2096.024, 928.679, 179.965, .078, 3.912"
1760042177.2384737,"09-OCT-25 14:33 , 1531540540, 3.932294, .008554, -.014391, .034901, -90.063873, -.058055, 1779.059, -2097.080, 928.679, 179.965, .078, 3.874"
1760042177.3034098,"09-OCT-25 14:33 , 1531540540, 3.888799, .008548, -.014378, .034901, -90.063896, -.058055, 1779.141, -2098.286, 928.679, 179.965, .078, 3.831"
1760042177.3583362,"09-OCT-25 14:33 , 1531540540, 3.850714, .008540, -.014365, .034905, -90.063896, -.058055, 1779.212, -2099.342, 928.680, 179.965, .078, 3.793"
1760042177.4224524,"09-OCT-25 14:33 , 1531540540, 3.807157, .008532, -.014353, .034905, -90.063896, -.058048, 1779.292, -2100.549, 928.680, 179.965, .078, 3.749"
1760042177.4783826,"09-OCT-25 14:33 , 1531540541, 3.769048, .008526, -.014343, .034905, -90.063896, -.058048, 1779.362, -2101.605, 928.680, 179.965, .078, 3.711"
1760042177.5426826,"09-OCT-25 14:33 , 1531540541, 3.725551, .008518, -.014328, .034905, -90.063896, -.058048, 1779.441, -2102.811, 928.680, 179.965, .078, 3.667"
1760042177.5995338,"09-OCT-25 14:33 , 1531540541, 3.687570, .008509, -.014318, .034905, -90.063896, -.058041, 1779.509, -2103.864, 928.681, 179.965, .078, 3.629"
1760042177.6623762,"09-OCT-25 14:33 , 1531540541, 3.644111, .008501, -.014306, .034905, -90.063896, -.058041, 1779.585, -2105.069, 928.681, 179.965, .078, 3.586"
1760042177.7200603,"09-OCT-25 14:33 , 1531540541, 3.606143, .008496, -.014293, .034905, -90.063896, -.058041, 1779.652, -2106.121, 928.681, 179.965, .078, 3.548"
1760042177.7914944,"09-OCT-25 14:33 , 1531540541, 3.557385, .008487, -.014280, .034905, -90.063896, -.058035, 1779.736, -2107.473, 928.681, 179.965, .078, 3.499"
1760042177.8472047,"09-OCT-25 14:33 , 1531540541, 3.519372, .008479, -.014268, .034905, -90.063896, -.058035, 1779.801, -2108.527, 928.682, 179.965, .078, 3.461"
1760042177.9032173,"09-OCT-25 14:33 , 1531540541, 3.481290, .008474, -.014255, .034905, -90.063896, -.058035, 1779.865, -2109.583, 928.682, 179.965, .078, 3.423"
1760042177.9664047,"09-OCT-25 14:33 , 1531540541, 3.437727, .008465, -.014243, .034905, -90.063896, -.058028, 1779.938, -2110.791, 928.682, 179.965, .078, 3.380"
1760042178.0232668,"09-OCT-25 14:33 , 1531540541, 3.399618, .008457, -.014233, .034910, -90.063896, -.058028, 1780.001, -2111.848, 928.682, 179.965, .078, 3.342"
1760042178.0863647,"09-OCT-25 14:33 , 1531540541, 3.356219, .008452, -.014220, .034910, -90.063896, -.058028, 1780.072, -2113.052, 928.683, 179.965, .078, 3.298"
1760042178.1425114,"09-OCT-25 14:33 , 1531540541, 3.318176, .008443, -.014208, .034910, -90.063896, -.058021, 1780.133, -2114.107, 928.683, 179.965, .078, 3.260"
1760042178.206513,"09-OCT-25 14:33 , 1531540541, 3.274607, .008435, -.014195, .034910, -90.063896, -.058021, 1780.203, -2115.315, 928.683, 179.965, .078, 3.217"
1760042178.2632558,"09-OCT-25 14:33 , 1531540541, 3.236486, .008430, -.014183, .034910, -90.063896, -.058021, 1780.262, -2116.372, 928.684, 179.965, .078, 3.178"
1760042178.3263922,"09-OCT-25 14:33 , 1531540541, 3.192949, .008421, -.014170, .034910, -90.063896, -.058014, 1780.330, -2117.580, 928.684, 179.965, .078, 3.135"
1760042178.3824036,"09-OCT-25 14:33 , 1531540541, 3.154864, .008413, -.014161, .034910, -90.063896, -.058014, 1780.388, -2118.636, 928.684, 179.965, .078, 3.097"
1760042178.4464326,"09-OCT-25 14:33 , 1531540541, 3.111367, .008405, -.014148, .034910, -90.063896, -.058014, 1780.454, -2119.843, 928.684, 179.965, .078, 3.053"
1760042178.5024102,"09-OCT-25 14:33 , 1531540541, 3.073273, .008399, -.014135, .034910, -90.063896, -.058008, 1780.511, -2120.900, 928.685, 179.965, .077, 3.015"
1760042178.5663207,"09-OCT-25 14:33 , 1531540541, 3.029740, .008391, -.014123, .034910, -90.063896, -.058008, 1780.575, -2122.107, 928.685, 179.965, .077, 2.972"
1760042178.6224005,"09-OCT-25 14:33 , 1531540541, 2.991625, .008385, -.014110, .034914, -90.063896, -.058008, 1780.630, -2123.165, 928.685, 179.965, .077, 2.934"
1760042178.6863825,"09-OCT-25 14:33 , 1531540541, 2.948086, .008377, -.014098, .034914, -90.063896, -.058001, 1780.693, -2124.373, 928.685, 179.965, .077, 2.890"
1760042178.742387,"09-OCT-25 14:33 , 1531540541, 2.910016, .008369, -.014088, .034914, -90.063896, -.058001, 1780.746, -2125.429, 928.686, 179.965, .077, 2.852"
1760042178.8002512,"09-OCT-25 14:33 , 1531540541, 2.871948, .008363, -.014076, .034914, -90.063896, -.058001, 1780.800, -2126.485, 928.686, 179.965, .077, 2.814"
1760042178.8634667,"09-OCT-25 14:33 , 1531540541, 2.828406, .008355, -.014063, .034914, -90.063896, -.058001, 1780.859, -2127.693, 928.686, 179.965, .077, 2.770"
1760042178.919693,"09-OCT-25 14:33 , 1531540541, 2.790294, .008347, -.014053, .034914, -90.063896, -.057994, 1780.911, -2128.751, 928.686, 179.965, .077, 2.732"
1760042178.982429,"09-OCT-25 14:33 , 1531540541, 2.746764, .008339, -.014038, .034914, -90.063896, -.057994, 1780.969, -2129.958, 928.687, 179.965, .077, 2.689"
1760042179.0394294,"09-OCT-25 14:33 , 1531540541, 2.708754, .008333, -.014028, .034914, -90.063896, -.057994, 1781.019, -2131.013, 928.687, 179.965, .077, 2.651"
1760042179.103389,"09-OCT-25 14:33 , 1531540541, 2.665298, .008325, -.014016, .034914, -90.063896, -.057987, 1781.075, -2132.219, 928.687, 179.965, .077, 2.607"
1760042179.1583867,"09-OCT-25 14:33 , 1531540541, 2.627246, .008319, -.014003, .034914, -90.063896, -.057987, 1781.124, -2133.275, 928.688, 179.965, .077, 2.569"
1760042179.223409,"09-OCT-25 14:33 , 1531540541, 2.583770, .008311, -.013990, .034914, -90.063896, -.057987, 1781.178, -2134.482, 928.688, 179.965, .077, 2.526"
1760042179.2799733,"09-OCT-25 14:33 , 1531540541, 2.545768, .008303, -.013981, .034918, -90.063896, -.057980, 1781.226, -2135.536, 928.688, 179.965, .077, 2.488"
1760042179.3423824,"09-OCT-25 14:33 , 1531540541, 2.502291, .008294, -.013968, .034918, -90.063896, -.057980, 1781.278, -2136.743, 928.688, 179.965, .077, 2.444"
1760042179.4000292,"09-OCT-25 14:33 , 1531540541, 2.464251, .008289, -.013956, .034918, -90.063896, -.057980, 1781.324, -2137.799, 928.689, 179.965, .077, 2.406"
1760042179.4624228,"09-OCT-25 14:34 , 1531540544, 2.420763, .008281, -.013943, .034918, -90.063911, -.057974, 1781.375, -2139.006, 928.689, 179.965, .077, 2.363"
1760042179.5196567,"09-OCT-25 14:34 , 1531540544, 2.382717, .008275, -.013931, .034918, -90.063911, -.057974, 1781.419, -2140.062, 928.689, 179.965, .077, 2.325"
1760042179.582464,"09-OCT-25 14:34 , 1531540544, 2.339255, .008267, -.013918, .034918, -90.063911, -.057974, 1781.469, -2141.268, 928.690, 179.965, .077, 2.281"
1760042179.6383622,"09-OCT-25 14:34 , 1531540544, 2.301245, .008259, -.013908, .034918, -90.063911, -.057967, 1781.511, -2142.323, 928.690, 179.965, .077, 2.243"
1760042179.69624,"09-OCT-25 14:34 , 1531540544, 2.263288, .008253, -.013896, .034918, -90.063911, -.057967, 1781.553, -2143.377, 928.690, 179.965, .077, 2.205"
1760042179.758366,"09-OCT-25 14:34 , 1531540544, 2.219877, .008245, -.013883, .034918, -90.063911, -.057967, 1781.600, -2144.582, 928.690, 179.965, .077, 2.162"
1760042179.814443,"09-OCT-25 14:34 , 1531540544, 2.181876, .008236, -.013871, .034918, -90.063911, -.057960, 1781.640, -2145.637, 928.690, 179.965, .077, 2.124"
1760042179.878357,"09-OCT-25 14:34 , 1531540544, 2.138441, .008228, -.013858, .034918, -90.063911, -.057960, 1781.685, -2146.843, 928.691, 179.965, .077, 2.080"
1760042179.9343755,"09-OCT-25 14:34 , 1531540544, 2.100440, .008223, -.013849, .034923, -90.063911, -.057960, 1781.724, -2147.898, 928.691, 179.965, .077, 2.042"
1760042180.0003674,"09-OCT-25 14:34 , 1531540544, 2.057017, .008214, -.013836, .034923, -90.063911, -.057953, 1781.767, -2149.103, 928.691, 179.965, .077, 1.999"
1760042180.05523,"09-OCT-25 14:34 , 1531540544, 2.019039, .008209, -.013823, .034923, -90.063911, -.057953, 1781.805, -2150.157, 928.692, 179.965, .077, 1.961"
1760042180.1199274,"09-OCT-25 14:34 , 1531540544, 1.975676, .008201, -.013811, .034923, -90.063911, -.057953, 1781.846, -2151.362, 928.692, 179.965, .077, 1.918"
1760042180.1752052,"09-OCT-25 14:34 , 1531540544, 1.937729, .008192, -.013798, .034923, -90.063911, -.057947, 1781.882, -2152.415, 928.692, 179.965, .077, 1.880"
1760042180.2384064,"09-OCT-25 14:34 , 1531540544, 1.894368, .008184, -.013786, .034923, -90.063911, -.057947, 1781.922, -2153.619, 928.692, 179.965, .077, 1.836"
1760042180.2978852,"09-OCT-25 14:34 , 1531540544, 1.856427, .008179, -.013776, .034923, -90.063911, -.057947, 1781.956, -2154.672, 928.693, 179.965, .077, 1.798"
1760042180.3584561,"09-OCT-25 14:34 , 1531540544, 1.813079, .008170, -.013763, .034923, -90.063911, -.057940, 1781.995, -2155.876, 928.693, 179.965, .077, 1.755"
1760042180.414504,"09-OCT-25 14:34 , 1531540544, 1.775161, .008165, -.013751, .034923, -90.063911, -.057940, 1782.027, -2156.929, 928.693, 179.965, .077, 1.717"
1760042180.4783823,"09-OCT-25 14:34 , 1531540544, 1.731842, .008157, -.013738, .034923, -90.063911, -.057940, 1782.064, -2158.132, 928.694, 179.965, .077, 1.674"
1760042180.5343854,"09-OCT-25 14:34 , 1531540544, 1.693951, .008148, -.013729, .034923, -90.063911, -.057933, 1782.095, -2159.184, 928.694, 179.965, .077, 1.636"
1760042180.5917473,"09-OCT-25 14:34 , 1531540544, 1.656076, .008143, -.013716, .034927, -90.063911, -.057933, 1782.126, -2160.236, 928.694, 179.965, .077, 1.598"
1760042180.654433,"09-OCT-25 14:34 , 1531540544, 1.612805, .008134, -.013704, .034927, -90.063911, -.057933, 1782.160, -2161.437, 928.694, 179.965, .077, 1.555"
1760042180.7113988,"09-OCT-25 14:34 , 1531540544, 1.574959, .008126, -.013691, .034927, -90.063911, -.057926, 1782.188, -2162.488, 928.695, 179.965, .077, 1.517"
1760042180.7766838,"09-OCT-25 14:34 , 1531540544, 1.531727, .008121, -.013678, .034927, -90.063911, -.057926, 1782.221, -2163.689, 928.695, 179.965, .077, 1.474"
1760042180.8313367,"09-OCT-25 14:34 , 1531540544, 1.493917, .008112, -.013669, .034927, -90.063911, -.057926, 1782.248, -2164.739, 928.695, 179.965, .077, 1.436"
1760042180.8945186,"09-OCT-25 14:34 , 1531540544, 1.450730, .008104, -.013656, .034927, -90.063911, -.057919, 1782.279, -2165.938, 928.695, 179.965, .077, 1.393"
1760042180.9518023,"09-OCT-25 14:34 , 1531540544, 1.412958, .008099, -.013644, .034927, -90.063911, -.057919, 1782.305, -2166.987, 928.696, 179.965, .077, 1.355"
1760042181.0143797,"09-OCT-25 14:34 , 1531540544, 1.369819, .008090, -.013631, .034927, -90.063911, -.057919, 1782.334, -2168.185, 928.696, 179.965, .077, 1.312"
1760042181.0715916,"09-OCT-25 14:34 , 1531540544, 1.332095, .008082, -.013622, .034927, -90.063911, -.057913, 1782.358, -2169.233, 928.696, 179.965, .077, 1.274"
1760042181.135217,"09-OCT-25 14:34 , 1531540544, 1.289013, .008077, -.013609, .034927, -90.063911, -.057913, 1782.385, -2170.429, 928.696, 179.965, .077, 1.231"
1760042181.1915185,"09-OCT-25 14:34 , 1531540544, 1.251343, .008068, -.013596, .034927, -90.063911, -.057913, 1782.408, -2171.476, 928.697, 179.965, .077, 1.193"
1760042181.2566042,"09-OCT-25 14:34 , 1531540544, 1.208326, .008060, -.013584, .034932, -90.063911, -.057906, 1782.433, -2172.670, 928.697, 179.965, .077, 1.150"
1760042181.31134,"09-OCT-25 14:34 , 1531540544, 1.170719, .008054, -.013571, .034932, -90.063911, -.057906, 1782.455, -2173.715, 928.697, 179.965, .077, 1.113"
1760042181.3745513,"09-OCT-25 14:34 , 1531540544, 1.127779, .008046, -.013559, .034932, -90.063911, -.057906, 1782.479, -2174.907, 928.698, 179.965, .077, 1.070"
1760042181.4313953,"09-OCT-25 14:34 , 1531540544, 1.090247, .008041, -.013549, .034932, -90.063911, -.057906, 1782.499, -2175.950, 928.698, 179.965, .077, 1.032"
1760042181.4864204,"09-OCT-25 14:34 , 1531540545, 1.052753, .008032, -.013537, .034932, -90.063911, -.057899, 1782.518, -2176.991, 928.698, 179.965, .077, .994"
1760042181.5519555,"09-OCT-25 14:34 , 1531540545, 1.009954, .008024, -.013524, .034932, -90.063911, -.057899, 1782.539, -2178.180, 928.698, 179.965, .077, .952"
1760042181.6064093,"09-OCT-25 14:34 , 1531540545, .972558, .008019, -.013514, .034932, -90.063911, -.057899, 1782.557, -2179.219, 928.699, 179.965, .077, .914"
1760042181.671682,"09-OCT-25 14:34 , 1531540545, .929876, .008010, -.013502, .034932, -90.063911, -.057892, 1782.576, -2180.404, 928.699, 179.965, .077, .871"
1760042181.7264342,"09-OCT-25 14:34 , 1531540545, .892576, .008005, -.013489, .034932, -90.063911, -.057892, 1782.592, -2181.440, 928.699, 179.965, .077, .834"
1760042181.7913704,"09-OCT-25 14:34 , 1531540545, .850010, .007997, -.013477, .034932, -90.063911, -.057892, 1782.610, -2182.623, 928.699, 179.965, .077, .792"
1760042181.8464963,"09-OCT-25 14:34 , 1531540545, .812821, .007988, -.013467, .034932, -90.063911, -.057885, 1782.625, -2183.656, 928.700, 179.965, .077, .754"
1760042181.9115036,"09-OCT-25 14:34 , 1531540545, .770398, .007983, -.013455, .034936, -90.063911, -.057885, 1782.641, -2184.834, 928.700, 179.965, .077, .712"
1760042181.9665008,"09-OCT-25 14:34 , 1531540545, .733352, .007975, -.013442, .034936, -90.063911, -.057885, 1782.654, -2185.863, 928.700, 179.965, .077, .675"
1760042182.0316164,"09-OCT-25 14:34 , 1531540545, .691099, .007966, -.013429, .034936, -90.063911, -.057879, 1782.668, -2187.037, 928.700, 179.965, .077, .633"
1760042182.088443,"09-OCT-25 14:34 , 1531540545, .654203, .007961, -.013420, .034936, -90.063911, -.057879, 1782.680, -2188.062, 928.701, 179.965, .077, .596"
1760042182.1520832,"09-OCT-25 14:34 , 1531540545, .612123, .007952, -.013407, .034936, -90.063911, -.057879, 1782.693, -2189.231, 928.701, 179.965, .077, .554"
1760042182.2065473,"09-OCT-25 14:34 , 1531540545, .575391, .007947, -.013395, .034936, -90.063911, -.057872, 1782.703, -2190.251, 928.701, 179.965, .077, .517"
1760042182.2716064,"09-OCT-25 14:34 , 1531540545, .533520, .007939, -.013385, .034936, -90.063911, -.057872, 1782.714, -2191.414, 928.701, 179.965, .077, .475"
1760042182.3273256,"09-OCT-25 14:34 , 1531540545, .496997, .007933, -.013373, .034936, -90.063911, -.057872, 1782.723, -2192.429, 928.702, 179.965, .077, .439"
1760042182.3824522,"09-OCT-25 14:34 , 1531540545, .460586, .007925, -.013363, .034936, -90.063911, -.057865, 1782.731, -2193.440, 928.702, 179.965, .077, .402"
1760042182.4464226,"09-OCT-25 14:34 , 1531540545, .419143, .007917, -.013351, .034936, -90.063911, -.057865, 1782.740, -2194.592, 928.702, 179.965, .077, .361"
1760042182.5037692,"09-OCT-25 14:34 , 1531540545, .383043, .007911, -.013338, .034936, -90.063911, -.057865, 1782.746, -2195.594, 928.702, 179.965, .077, .325"
1760042182.5664134,"09-OCT-25 14:34 , 1531540545, .342012, .007903, -.013329, .034940, -90.063911, -.057865, 1782.753, -2196.734, 928.703, 179.965, .077, .284"
1760042182.6224585,"09-OCT-25 14:34 , 1531540545, .306342, .007897, -.013316, .034940, -90.063927, -.057858, 1782.759, -2197.725, 928.703, 179.965, .077, .248"
1760042182.6863947,"09-OCT-25 14:34 , 1531540545, .265896, .007889, -.013303, .034940, -90.063927, -.057858, 1782.764, -2198.849, 928.703, 179.965, .077, .208"
1760042182.742431,"09-OCT-25 14:34 , 1531540545, .230895, .007884, -.013294, .034940, -90.063927, -.057858, 1782.768, -2199.821, 928.703, 179.965, .077, .173"
1760042182.8064742,"09-OCT-25 14:34 , 1531540545, .191795, .007875, -.013281, .034940, -90.063927, -.057852, 1782.772, -2200.907, 928.704, 179.965, .077, .133"
1760042182.8624868,"09-OCT-25 14:34 , 1531540545, .158994, .007870, -.013272, .034940, -90.063927, -.057852, 1782.774, -2201.819, 928.704, 179.965, .077, .101"
1760042182.9275773,"09-OCT-25 14:34 , 1531540545, .123850, .007864, -.013262, .034940, -90.063927, -.057852, 1782.776, -2202.795, 928.704, 179.965, .077, .065"
1760042182.9824305,"09-OCT-25 14:34 , 1531540545, .095697, .007859, -.013253, .034940, -90.063927, -.057852, 1782.778, -2203.577, 928.704, 179.965, .077, .037"
1760042183.0465443,"09-OCT-25 14:34 , 1531540545, .067070, .007853, -.013247, .034940, -90.063927, -.057845, 1782.779, -2204.372, 928.705, 179.965, .077, .009"
1760042183.1024935,"09-OCT-25 14:34 , 1531540545, .045500, .007850, -.013240, .034940, -90.063927, -.057845, 1782.779, -2204.971, 928.705, 179.965, .077, -.012"
1760042183.166685,"09-OCT-25 14:34 , 1531540545, .025137, .007845, -.013234, .034940, -90.063927, -.057845, 1782.779, -2205.537, 928.705, 179.965, .077, -.032"
1760042183.2225354,"09-OCT-25 14:34 , 1531540545, .011177, .007845, -.013228, .034940, -90.063927, -.057845, 1782.779, -2205.925, 928.705, 179.965, .077, -.046"
1760042183.2784097,"09-OCT-25 14:34 , 1531540545, .000770, .007842, -.013225, .034940, -90.063927, -.057845, 1782.779, -2206.214, 928.705, 179.965, .077, -.057"
1760042183.3437037,"09-OCT-25 14:34 , 1531540545, -.007066, .007839, -.013225, .034940, -90.063927, -.057845, 1782.779, -2206.432, 928.705, 179.965, .077, -.064"
1760042183.3993492,"09-OCT-25 14:34 , 1531540545, -.010851, .007839, -.013221, .034940, -90.063927, -.057845, 1782.779, -2206.537, 928.705, 179.965, .077, -.068"
1760042183.46244,"09-OCT-25 14:34 , 1531540546, -.012541, .007839, -.013221, .034940, -90.063927, -.057845, 1782.779, -2206.584, 928.705, 179.965, .077, -.070"
1760042183.519911,"09-OCT-25 14:34 , 1531540546, -.012741, .007839, -.013221, .034940, -90.063927, -.057845, 1782.779, -2206.589, 928.705, 179.965, .077, -.070"
1760042183.582447,"09-OCT-25 14:34 , 1531540546, -.012741, .007839, -.013221, .034940, -90.063927, -.057845, 1782.779, -2206.589, 928.705, 179.965, .077, -.070"
1760042183.6397507,"09-OCT-25 14:34 , 1531540546, -.012741, .007839, -.013221, .034940, -90.063927, -.057845, 1782.779, -2206.589, 928.705, 179.965, .077, -.070"
1760042183.702526,"09-OCT-25 14:34 , 1531540546, -.012741, .007839, -.013221, .034940, -90.063927, -.057845, 1782.779, -2206.589, 928.705, 179.965, .077, -.070"
1760042183.7583854,"09-OCT-25 14:34 , 1531540546, -.012741, .007839, -.013221, .034940, -90.063927, -.057845, 1782.779, -2206.589, 928.705, 179.965, .077, -.070"
1760042183.8224218,"09-OCT-25 14:34 , 1531540546, -.012741, .007839, -.013221, .034940, -90.063927, -.057845, 1782.779, -2206.589, 928.705, 179.965, .077, -.070"
1760042183.8784256,"09-OCT-25 14:34 , 1531540546, -.012741, .007839, -.013221, .034940, -90.063927, -.057845, 1782.779, -2206.589, 928.705, 179.965, .077, -.070"
1760042183.9424422,"09-OCT-25 14:34 , 1531540546, -.012741, .007839, -.013221, .034940, -90.063927, -.057845, 1782.779, -2206.589, 928.705, 179.965, .077, -.070"
1760042183.9984248,"09-OCT-25 14:34 , 1531540546, -.012741, .007839, -.013221, .034940, -90.063927, -.057845, 1782.779, -2206.589, 928.705, 179.965, .077, -.070"
1760042184.063306,"09-OCT-25 14:34 , 1531540546, -.012741, .007839, -.013221, .034940, -90.063927, -.057845, 1782.779, -2206.589, 928.705, 179.965, .077, -.070"
1760042184.1185815,"09-OCT-25 14:34 , 1531540546, -.012741, .007839, -.013221, .034940, -90.063927, -.057845, 1782.779, -2206.589, 928.705, 179.965, .077, -.070"
1760042184.1744492,"09-OCT-25 14:34 , 1531540546, -.012741, .007839, -.013221, .034940, -90.063927, -.057845, 1782.779, -2206.589, 928.705, 179.965, .077, -.070"
1760042184.2383802,"09-OCT-25 14:34 , 1531540546, -.012741, .007839, -.013221, .034940, -90.063927, -.057845, 1782.779, -2206.589, 928.705, 179.965, .077, -.070"
1760042184.2977958,"09-OCT-25 14:34 , 1531540546, -.012741, .007839, -.013221, .034940, -90.063927, -.057845, 1782.779, -2206.589, 928.705, 179.965, .077, -.070"
1760042184.358541,"09-OCT-25 14:34 , 1531540546, -.012741, .007839, -.013221, .034940, -90.063927, -.057845, 1782.779, -2206.589, 928.705, 179.965, .077, -.070"
1760042184.415436,"09-OCT-25 14:34 , 1531540546, -.012741, .007839, -.013221, .034940, -90.063927, -.057845, 1782.779, -2206.589, 928.705, 179.965, .077, -.070"
1760042184.4796348,"09-OCT-25 14:34 , 1531540546, -.012741, .007839, -.013221, .034940, -90.063927, -.057845, 1782.779, -2206.589, 928.705, 179.965, .077, -.070"
1760042184.534519,"09-OCT-25 14:34 , 1531540546, -.012741, .007839, -.013221, .034940, -90.063927, -.057845, 1782.779, -2206.589, 928.705, 179.965, .077, -.070"
1760042184.598627,"09-OCT-25 14:34 , 1531540546, -.012741, .007839, -.013221, .034940, -90.063927, -.057845, 1782.779, -2206.589, 928.705, 179.965, .077, -.070"
1760042184.6544871,"09-OCT-25 14:34 , 1531540546, -.012741, .007839, -.013221, .034940, -90.063927, -.057845, 1782.779, -2206.589, 928.705, 179.965, .077, -.070"
1760042184.7184353,"09-OCT-25 14:34 , 1531540546, -.012741, .007839, -.013221, .034940, -90.063927, -.057845, 1782.779, -2206.589, 928.705, 179.965, .077, -.070"
1760042184.7745512,"09-OCT-25 14:34 , 1531540546, -.012741, .007839, -.013221, .034940, -90.063927, -.057845, 1782.779, -2206.589, 928.705, 179.965, .077, -.070"
1760042184.8384163,"09-OCT-25 14:34 , 1531540546, -.012741, .007839, -.013221, .034940, -90.063927, -.057845, 1782.779, -2206.589, 928.705, 179.965, .077, -.070"
1760042184.895689,"09-OCT-25 14:34 , 1531540546, -.012741, .007839, -.013221, .034940, -90.063927, -.057845, 1782.779, -2206.589, 928.705, 179.965, .077, -.070"
1760042184.9584324,"09-OCT-25 14:34 , 1531540546, -.012741, .007839, -.013221, .034940, -90.063927, -.057845, 1782.779, -2206.589, 928.705, 179.965, .077, -.070"
1760042185.0144606,"09-OCT-25 14:34 , 1531540546, -.012741, .007839, -.013221, .034940, -90.063927, -.057845, 1782.779, -2206.589, 928.705, 179.965, .077, -.070"
1760042185.0713797,"09-OCT-25 14:34 , 1531540546, -.012741, .007839, -.013221, .034940, -90.063927, -.057845, 1782.779, -2206.589, 928.705, 179.965, .077, -.070"
1760042185.1344283,"09-OCT-25 14:34 , 1531540546, -.012741, .007839, -.013221, .034940, -90.063927, -.057845, 1782.779, -2206.589, 928.705, 179.965, .077, -.070"
1760042185.1917758,"09-OCT-25 14:34 , 1531540546, -.012741, .007839, -.013221, .034940, -90.063927, -.057845, 1782.779, -2206.589, 928.705, 179.965, .077, -.070"
1760042185.2544658,"09-OCT-25 14:34 , 1531540546, -.012741, .007839, -.013221, .034940, -90.063927, -.057845, 1782.779, -2206.589, 928.705, 179.965, .077, -.070"
1760042185.3117647,"09-OCT-25 14:34 , 1531540546, -.012741, .007839, -.013221, .034940, -90.063927, -.057845, 1782.779, -2206.589, 928.705, 179.965, .077, -.070"
1760042185.3744,"09-OCT-25 14:34 , 1531540546, -.012741, .007839, -.013221, .034940, -90.063927, -.057845, 1782.779, -2206.589, 928.705, 179.965, .077, -.070"
1760042185.4315777,"09-OCT-25 14:34 , 1531540546, -.012741, .007839, -.013221, .034940, -90.063927, -.057845, 1782.779, -2206.589, 928.705, 179.965, .077, -.070"
1760042185.4953518,"09-OCT-25 14:34 , 1531540547, -.012741, .007839, -.013221, .034940, -90.063927, -.057845, 1782.779, -2206.589, 928.705, 179.965, .077, -.070"
1760042185.5522547,"09-OCT-25 14:34 , 1531540547, -.012741, .007839, -.013221, .034940, -90.063927, -.057845, 1782.779, -2206.589, 928.705, 179.965, .077, -.070"
1760042185.6177382,"09-OCT-25 14:34 , 1531540547, -.012741, .007839, -.013221, .034940, -90.063927, -.057845, 1782.779, -2206.589, 928.705, 179.965, .077, -.070"
1760042185.671357,"09-OCT-25 14:34 , 1531540547, -.012741, .007839, -.013221, .034940, -90.063927, -.057845, 1782.779, -2206.589, 928.705, 179.965, .077, -.070"
1760042185.7355595,"09-OCT-25 14:34 , 1531540547, -.012741, .007839, -.013221, .034940, -90.063927, -.057845, 1782.779, -2206.589, 928.705, 179.965, .077, -.070"
1760042185.7914376,"09-OCT-25 14:34 , 1531540547, -.012741, .007839, -.013221, .034940, -90.063927, -.057845, 1782.779, -2206.589, 928.705, 179.965, .077, -.070"
1760042185.8544054,"09-OCT-25 14:34 , 1531540547, -.012741, .007839, -.013221, .034940, -90.063927, -.057845, 1782.779, -2206.589, 928.705, 179.965, .077, -.070"
